; generated by Slic3r 1.2.9 on 2016-02-28 at 21:42:55

; external perimeters extrusion width = 0.40mm
; perimeters extrusion width = 0.67mm
; infill extrusion width = 0.67mm
; solid infill extrusion width = 0.67mm
; top infill extrusion width = 0.67mm

M107
M190 S70 ; set bed temperature
M104 S200 ; set temperature
G28 ; home all axes
G1 Z5 F5000 ; lift nozzle

M109 S200 ; wait for temperature to be reached
G21 ; set units to millimeters
G90 ; use absolute coordinates
M82 ; use absolute distances for extrusion
G92 E0
G1 Z0.400 F7800.000
G1 E-2.00000 F2400.00000
G92 E0
G1 X48.103 Y56.892 F7800.000
G1 E2.00000 F2400.00000
G1 X48.630 Y56.462 E2.08077 F1800.000
G1 X54.754 Y51.965 E2.98308
G1 X55.322 Y51.591 E3.06386
G1 X61.869 Y47.737 E3.96616
G1 X62.472 Y47.422 E4.04693
G1 X69.376 Y44.250 E4.94924
G1 X70.007 Y43.998 E5.03001
G1 X77.196 Y41.540 E5.93232
G1 X77.850 Y41.353 E6.01310
G1 X85.251 Y39.636 E6.91540
G1 X85.920 Y39.516 E6.99617
G1 X93.155 Y38.595 E7.86239
G1 X94.135 Y38.505 E7.97922
G1 X101.730 Y38.312 E8.88153
G1 X102.410 Y38.329 E8.96230
G1 X109.985 Y38.906 E9.86460 F1800.000
G1 X110.660 Y38.992 E9.94538
G1 X118.138 Y40.332 E10.84769
G1 X118.801 Y40.486 E10.92846
G1 X126.105 Y42.576 E11.83076
G1 X126.748 Y42.796 E11.91154
G1 X133.804 Y45.614 E12.81384
G1 X134.422 Y45.898 E12.89462
G1 X141.156 Y49.416 E13.79693
G1 X141.742 Y49.761 E13.87770
G1 X146.540 Y52.923 E14.56011
G1 X148.086 Y53.942 E14.78001
G1 X148.634 Y54.344 E14.86078
G1 X154.522 Y59.145 E15.76308
G1 X155.027 Y59.601 E15.84386
G1 X160.399 Y64.973 E16.74616
G1 X160.855 Y65.478 E16.82694
G1 X165.656 Y71.366 E17.72924
G1 X166.058 Y71.914 E17.81002
G1 X170.239 Y78.258 E18.71232
G1 X170.584 Y78.844 E18.79310
G1 X174.102 Y85.578 E19.69540
G1 X174.386 Y86.196 E19.77618
G1 X177.204 Y93.252 E20.67848
G1 X177.424 Y93.895 E20.75926
G1 X179.514 Y101.199 E21.66156
G1 X179.668 Y101.862 E21.74234
G1 X181.008 Y109.340 E22.64464
G1 X181.094 Y110.015 E22.72542
G1 X181.671 Y117.590 E23.62775
G1 X181.688 Y118.270 E23.70849
G1 X181.495 Y125.865 E24.61080
G1 X181.444 Y126.543 E24.69158
G1 X180.484 Y134.080 E25.59388
G1 X180.364 Y134.749 E25.67466
G1 X178.647 Y142.150 E26.57696
G1 X178.460 Y142.804 E26.65774
G1 X176.002 Y149.993 E27.56004
G1 X175.750 Y150.624 E27.64082
G1 X172.578 Y157.528 E28.54312
G1 X172.263 Y158.131 E28.62390
G1 X169.402 Y162.991 E29.29370
G1 X168.409 Y164.678 E29.52620
G1 X168.035 Y165.246 E29.60698
G1 X163.538 Y171.370 E30.50928
G1 X163.108 Y171.897 E30.59006
G1 X158.015 Y177.534 E31.49236
G1 X157.534 Y178.015 E31.57314
G1 X151.897 Y183.108 E32.47544
G1 X151.370 Y183.538 E32.55621
G1 X145.246 Y188.035 E33.45852
G1 X144.678 Y188.409 E33.53929
G1 X138.393 Y192.109 E34.40550
G1 X137.528 Y192.578 E34.52234
G1 X130.624 Y195.750 E35.42465
G1 X129.993 Y196.002 E35.50542
G1 X122.804 Y198.460 E36.40773
G1 X122.150 Y198.647 E36.48850
G1 X114.749 Y200.364 E37.39082
G1 X114.080 Y200.484 E37.47158
G1 X106.543 Y201.444 E38.37389
G1 X105.865 Y201.495 E38.45466
G1 X101.352 Y201.610 E38.99088
G1 X98.270 Y201.688 E39.35697
G1 X97.591 Y201.671 E39.43770
G1 X90.015 Y201.094 E40.34004
G1 X89.340 Y201.008 E40.42082
G1 X81.862 Y199.668 E41.32313
G1 X81.199 Y199.514 E41.40390
G1 X73.895 Y197.424 E42.30621
G1 X73.252 Y197.204 E42.38698
G1 X66.196 Y194.386 E43.28930
G1 X65.578 Y194.102 E43.37006
G1 X59.114 Y190.725 E44.23627
G1 X58.258 Y190.239 E44.35311
G1 X51.914 Y186.058 E45.25541
G1 X51.366 Y185.656 E45.33619
G1 X45.478 Y180.855 E46.23849
G1 X44.974 Y180.399 E46.31927
G1 X39.601 Y175.026 E47.22157
G1 X39.145 Y174.522 E47.30235
G1 X34.344 Y168.634 E48.20465
G1 X33.942 Y168.086 E48.28543
G1 X29.761 Y161.742 E49.18773
G1 X29.416 Y161.156 E49.26851
G1 X26.039 Y154.691 E50.13472
G1 X25.614 Y153.804 E50.25155
G1 X22.796 Y146.748 E51.15386
G1 X22.576 Y146.105 E51.23463
G1 X20.486 Y138.801 E52.13694
G1 X20.332 Y138.138 E52.21771
G1 X18.992 Y130.660 E53.12002
G1 X18.906 Y129.985 E53.20079
G1 X18.329 Y122.410 E54.10311
G1 X18.312 Y121.730 E54.18387
G1 X18.505 Y114.135 E55.08618
G1 X18.556 Y113.457 E55.16695
G1 X19.516 Y105.920 E56.06926
G1 X19.636 Y105.251 E56.15003
G1 X21.353 Y97.850 E57.05234
G1 X21.540 Y97.196 E57.13311
G1 X23.899 Y90.295 E57.99932
G1 X24.250 Y89.376 E58.11616
G1 X27.422 Y82.472 E59.01847
G1 X27.737 Y81.869 E59.09924
G1 X31.591 Y75.322 E60.00155
G1 X31.965 Y74.754 E60.08232
G1 X36.462 Y68.630 E60.98462
G1 X36.892 Y68.103 E61.06540
G1 X41.985 Y62.466 E61.96770
G1 X42.466 Y61.985 E62.04848
G1 X48.059 Y56.932 E62.94366
G1 E60.94366 F2400.00000
G92 E0
G1 X68.338 Y152.767 F7800.000
G1 E2.00000 F2400.00000
G1 X131.076 Y152.049 E9.45155 F1800.000
G1 X134.181 Y159.369 E10.39589
G1 X132.561 Y167.104 E11.33449
G1 X133.244 Y167.090 E11.41558
G1 X127.382 Y173.842 E12.47750
G1 X124.935 Y173.888 E12.76816
G1 X125.377 Y175.573 E12.97508
G1 X117.419 Y179.747 E14.04235
G1 X85.072 Y180.712 E17.88570
G1 X76.608 Y177.058 E18.98065
G1 X77.044 Y174.780 E19.25605
G1 X73.578 Y174.845 E19.66775
G1 X67.196 Y168.423 E20.74295
G1 X67.761 Y168.412 E20.81002
G1 X65.594 Y160.242 E21.81385
G1 X68.318 Y152.824 E22.75237
G1 X65.190 Y160.620 F7800.000
G1 X64.702 Y166.182 F7800.000
G1 X64.049 Y168.334 F7800.000
G1 X68.312 Y168.384 F7800.000
G1 X69.128 Y168.205 F7800.000
G1 X69.148 Y169.212 F7800.000
G1 X68.879 Y169.103 F7800.000
G1 X131.650 Y167.837 E30.20889 F1800.000
G1 X127.051 Y173.134 E31.04204
G1 X124.014 Y173.191 E31.40279
G1 X124.542 Y175.205 E31.65006
G1 X117.233 Y179.038 E32.63028
G1 X85.210 Y179.994 E36.43523
G1 X77.417 Y176.629 E37.44330
G1 X77.768 Y174.795 E37.66508
G1 X105.973 Y173.953 E41.01643
G1 X105.963 Y173.527 E41.06703
G1 X73.869 Y174.125 E44.87933
G1 X68.921 Y169.146 E45.71298
G1 X68.848 Y179.046 F7800.000
G1 X75.414 Y176.153 F7800.000
G1 X77.073 Y174.755 F7800.000
G1 X77.863 Y174.906 F7800.000
G1 X78.362 Y175.492 F7800.000
G1 X123.526 Y174.143 E51.07927 F1800.000
G1 X123.707 Y174.836 E51.16430
G1 X117.047 Y178.329 E52.05749
G1 X85.347 Y179.275 E55.82402
G1 X78.226 Y176.201 E56.74520
G1 X78.350 Y175.551 E56.82380
G1 X78.379 Y175.092 F7800.000
G1 X77.863 Y174.906 F7800.000
G1 X77.073 Y174.755 F7800.000
G1 X73.986 Y177.769 F7800.000
G1 X73.916 Y174.010 F7800.000
G1 X70.562 Y169.784 F7800.000
G1 X130.056 Y168.583 E63.89108 F1800.000
G1 X126.720 Y172.426 E64.49546
G1 X74.161 Y173.405 E70.73875
G1 X70.604 Y169.826 E71.33799
G1 X70.454 Y169.399 F7800.000
G1 X69.148 Y169.212 F7800.000
G1 X64.869 Y165.434 F7800.000
G1 X65.148 Y162.497 F7800.000
G1 X66.732 Y160.349 F7800.000
G1 X66.815 Y160.350 F7800.000
G1 X66.803 Y159.354 F7800.000
G1 X66.638 Y159.470 F7800.000
G1 X68.839 Y153.476 E72.09630 F1800.000
G1 X130.606 Y152.769 E79.43251
G1 X133.108 Y158.668 E80.19355
G1 X66.698 Y159.469 E88.08131
G1 X67.666 Y158.743 F7800.000
G1 X69.340 Y154.184 E88.65806 F1800.000
G1 X130.135 Y153.488 E95.87893
G1 X132.035 Y157.966 E96.45665
G1 X67.726 Y158.742 E104.09489
G1 X67.276 Y158.652 F7800.000
G1 X66.596 Y161.234 F7800.000
G1 X133.230 Y160.420 E112.00931 F1800.000
G1 X131.943 Y166.570 E112.75551
G1 X68.211 Y167.322 E120.32527
G1 X66.611 Y161.292 E121.06609
G1 X67.521 Y161.937 F7800.000
G1 X132.349 Y161.145 E128.76593 F1800.000
G1 X131.362 Y165.863 E129.33833
G1 X68.758 Y166.601 E136.77395
G1 X67.537 Y161.995 E137.33986
G1 X67.484 Y161.539 F7800.000
G1 X131.156 Y160.560 F7800.000
G1 X133.077 Y159.541 F7800.000
G1 X134.710 Y160.875 F7800.000
G1 X134.638 Y161.565 F7800.000
G1 X136.365 Y161.565 F7800.000
G1 X135.537 Y161.638 F7800.000
G1 X135.537 Y160.708 E137.45031 F1800.000
G1 X135.698 Y159.792 E137.56077
G1 X136.016 Y158.918 E137.67122
G1 X136.481 Y158.113 E137.78167
G1 X137.065 Y157.417 E137.88952
G1 X137.787 Y156.805 E138.00202
G1 X138.597 Y156.337 E138.11300
G1 X139.471 Y156.019 E138.22345
G1 X140.387 Y155.858 E138.33390
G1 X141.317 Y155.858 E138.44435 F1800.000
G1 X142.232 Y156.019 E138.55480
G1 X143.106 Y156.337 E138.66526
G1 X143.912 Y156.802 E138.77571
G1 X144.607 Y157.386 E138.88356
G1 X145.220 Y158.109 E138.99606
G1 X145.687 Y158.918 E139.10703
G1 X146.005 Y159.792 E139.21749
G1 X146.167 Y160.708 E139.32794
G1 X146.167 Y161.638 E139.43839
G1 X146.005 Y162.554 E139.54884
G1 X145.687 Y163.428 E139.65930
G1 X145.222 Y164.233 E139.76975
G1 X144.624 Y164.945 E139.88020
G1 X143.912 Y165.543 E139.99065
G1 X143.106 Y166.008 E140.10110
G1 X142.232 Y166.326 E140.21156
G1 X141.317 Y166.488 E140.32201
G1 X140.387 Y166.488 E140.43246
G1 X139.471 Y166.326 E140.54291
G1 X138.579 Y166.002 E140.65555
G1 X137.717 Y165.481 E140.77528
G1 X137.079 Y164.945 E140.87415
G1 X136.481 Y164.233 E140.98460
G1 X136.016 Y163.428 E141.09505
G1 X135.698 Y162.554 E141.20550
G1 X135.547 Y161.697 E141.30883
G1 X136.251 Y161.575 F7800.000
G1 X136.251 Y160.770 E141.40444 F1800.000
G1 X136.390 Y159.978 E141.50005
G1 X136.666 Y159.221 E141.59567
G1 X137.068 Y158.524 E141.69128
G1 X137.573 Y157.923 E141.78450
G1 X138.200 Y157.391 E141.88215
G1 X138.900 Y156.987 E141.97808
G1 X139.656 Y156.712 E142.07369
G1 X140.449 Y156.572 E142.16930
G1 X141.254 Y156.572 E142.26491 F1800.000
G1 X142.047 Y156.712 E142.36052
G1 X142.803 Y156.987 E142.45613
G1 X143.501 Y157.390 E142.55175
G1 X144.102 Y157.894 E142.64496
G1 X144.633 Y158.522 E142.74262
G1 X145.037 Y159.221 E142.83855
G1 X145.313 Y159.978 E142.93416
G1 X145.452 Y160.770 E143.02977
G1 X145.452 Y161.575 E143.12538
G1 X145.313 Y162.368 E143.22099
G1 X145.037 Y163.125 E143.31661
G1 X144.635 Y163.822 E143.41221
G1 X144.117 Y164.439 E143.50782
G1 X143.501 Y164.956 E143.60344
G1 X142.803 Y165.359 E143.69905
G1 X142.047 Y165.634 E143.79466
G1 X141.254 Y165.774 E143.89027
G1 X140.449 Y165.774 E143.98588
G1 X139.656 Y165.634 E144.08149
G1 X138.889 Y165.355 E144.17844
G1 X138.133 Y164.898 E144.28332
G1 X137.586 Y164.439 E144.36821
G1 X137.068 Y163.822 E144.46382
G1 X136.666 Y163.125 E144.55943
G1 X136.390 Y162.368 E144.65504
G1 X136.261 Y161.634 E144.74352
G1 X136.965 Y161.513 F7800.000
G1 X136.965 Y160.833 E144.82429 F1800.000
G1 X137.083 Y160.163 E144.90506
G1 X137.316 Y159.524 E144.98583
G1 X137.656 Y158.935 E145.06660
G1 X138.081 Y158.428 E145.14519
G1 X138.613 Y157.977 E145.22800
G1 X139.203 Y157.637 E145.30888
G1 X139.842 Y157.404 E145.38965
G1 X140.511 Y157.286 E145.47042
G1 X141.192 Y157.286 E145.55119 F1800.000
G1 X141.861 Y157.404 E145.63196
G1 X142.500 Y157.637 E145.71273
G1 X143.089 Y157.977 E145.79350
G1 X143.596 Y158.402 E145.87208
G1 X144.047 Y158.934 E145.95489
G1 X144.387 Y159.524 E146.03578
G1 X144.620 Y160.163 E146.11655
G1 X144.738 Y160.833 E146.19732
G1 X144.738 Y161.513 E146.27809
G1 X144.620 Y162.183 E146.35886
G1 X144.387 Y162.822 E146.43963
G1 X144.047 Y163.411 E146.52040
G1 X143.610 Y163.932 E146.60117
G1 X143.089 Y164.369 E146.68194
G1 X142.500 Y164.709 E146.76271
G1 X141.861 Y164.941 E146.84348
G1 X141.192 Y165.060 E146.92425
G1 X140.511 Y165.060 E147.00502
G1 X139.842 Y164.941 E147.08579
G1 X139.199 Y164.707 E147.16704
G1 X138.550 Y164.315 E147.25708
G1 X138.093 Y163.932 E147.32798
G1 X137.656 Y163.411 E147.40874
G1 X137.316 Y162.822 E147.48951
G1 X137.083 Y162.183 E147.57028
G1 X136.975 Y161.572 E147.64393
G1 X136.607 Y161.333 F7800.000
G1 X136.770 Y159.269 F7800.000
G1 X137.200 Y149.992 F7800.000
G1 X119.311 Y137.377 F7800.000
G1 X113.713 Y142.954 F7800.000
G1 X111.384 Y144.720 F7800.000
G1 X103.507 Y141.853 F7800.000
G1 X104.075 Y142.525 F7800.000
G1 X103.839 Y142.934 E147.69999 F1800.000
G1 X103.298 Y143.580 E147.80010
G1 X102.652 Y144.121 E147.90020
G1 X101.922 Y144.543 E148.00029
G1 X101.130 Y144.831 E148.10040
G1 X100.300 Y144.978 E148.20050
G1 X99.457 Y144.978 E148.30060
G1 X98.627 Y144.831 E148.40070
G1 X97.835 Y144.543 E148.50080
G1 X97.122 Y144.131 E148.59860
G1 X96.462 Y143.583 E148.70045
G1 X95.918 Y142.934 E148.80108
G1 X95.496 Y142.204 E148.90118
G1 X95.208 Y141.412 E149.00128
G1 X95.062 Y140.582 E149.10138
G1 X95.062 Y139.739 E149.20149
G1 X95.208 Y138.909 E149.30158
G1 X95.490 Y138.135 E149.39938
G1 X95.915 Y137.391 E149.50124
G1 X96.460 Y136.742 E149.60186
G1 X97.105 Y136.200 E149.70197
G1 X97.835 Y135.778 E149.80207
G1 X98.627 Y135.490 E149.90216
G1 X99.457 Y135.344 E150.00227
G1 X100.300 Y135.344 E150.10237 F1800.000
G1 X101.130 Y135.490 E150.20247
G1 X101.922 Y135.778 E150.30257
G1 X102.635 Y136.190 E150.40037
G1 X103.295 Y136.738 E150.50222
G1 X103.839 Y137.387 E150.60285
G1 X104.261 Y138.117 E150.70295
G1 X104.549 Y138.909 E150.80305
G1 X104.695 Y139.739 E150.90315
G1 X104.695 Y140.582 E151.00325
G1 X104.549 Y141.412 E151.10336
G1 X104.261 Y142.204 E151.20345
G1 X104.105 Y142.473 E151.24037
G1 X103.457 Y142.168 F7800.000
G1 X103.252 Y142.523 E151.28901 F1800.000
G1 X102.791 Y143.073 E151.37427
G1 X102.241 Y143.534 E151.45953
G1 X101.619 Y143.893 E151.54479
G1 X100.945 Y144.139 E151.63005
G1 X100.238 Y144.263 E151.71531
G1 X99.520 Y144.263 E151.80057
G1 X98.813 Y144.139 E151.88583
G1 X98.138 Y143.893 E151.97109
G1 X97.532 Y143.543 E152.05425
G1 X96.968 Y143.075 E152.14126
G1 X96.505 Y142.523 E152.22684
G1 X96.146 Y141.901 E152.31210
G1 X95.901 Y141.227 E152.39736
G1 X95.776 Y140.520 E152.48262
G1 X95.776 Y139.802 E152.56788
G1 X95.901 Y139.095 E152.65314
G1 X96.140 Y138.437 E152.73631
G1 X96.503 Y137.800 E152.82332
G1 X96.966 Y137.248 E152.90890
G1 X97.516 Y136.787 E152.99416
G1 X98.138 Y136.428 E153.07942
G1 X98.813 Y136.183 E153.16468
G1 X99.520 Y136.058 E153.24994
G1 X100.238 Y136.058 E153.33520 F1800.000
G1 X100.945 Y136.183 E153.42046
G1 X101.619 Y136.428 E153.50572
G1 X102.226 Y136.778 E153.58888
G1 X102.789 Y137.246 E153.67589
G1 X103.252 Y137.798 E153.76147
G1 X103.611 Y138.420 E153.84673
G1 X103.857 Y139.095 E153.93199
G1 X103.981 Y139.802 E154.01725
G1 X103.981 Y140.520 E154.10251
G1 X103.857 Y141.227 E154.18777
G1 X103.611 Y141.901 E154.27303
G1 X103.487 Y142.116 E154.30252
G1 X102.838 Y141.811 F7800.000
G1 X102.665 Y142.112 E154.34374 F1800.000
G1 X102.284 Y142.566 E154.41416
G1 X101.830 Y142.947 E154.48458
G1 X101.316 Y143.243 E154.55500
G1 X100.759 Y143.446 E154.62542
G1 X100.175 Y143.549 E154.69584
G1 X99.582 Y143.549 E154.76626
G1 X98.998 Y143.446 E154.83667
G1 X98.441 Y143.243 E154.90709
G1 X97.941 Y142.955 E154.97562
G1 X97.474 Y142.567 E155.04779
G1 X97.092 Y142.112 E155.11832
G1 X96.796 Y141.598 E155.18874
G1 X96.593 Y141.041 E155.25916
G1 X96.490 Y140.457 E155.32958
G1 X96.490 Y139.864 E155.40000
G1 X96.593 Y139.280 E155.47042
G1 X96.790 Y138.738 E155.53895
G1 X97.092 Y138.210 E155.61112
G1 X97.473 Y137.755 E155.68165
G1 X97.928 Y137.374 E155.75207
G1 X98.441 Y137.078 E155.82249
G1 X98.998 Y136.875 E155.89291
G1 X99.582 Y136.772 E155.96332
G1 X100.175 Y136.772 E156.03375 F1800.000
G1 X100.759 Y136.875 E156.10416
G1 X101.316 Y137.078 E156.17458
G1 X101.816 Y137.366 E156.24311
G1 X102.283 Y137.755 E156.31528
G1 X102.665 Y138.210 E156.38581
G1 X102.961 Y138.723 E156.45623
G1 X103.164 Y139.280 E156.52665
G1 X103.267 Y139.864 E156.59707
G1 X103.267 Y140.457 E156.66749
G1 X103.164 Y141.041 E156.73791
G1 X102.961 Y141.598 E156.80833
G1 X102.868 Y141.759 E156.83040
G1 X103.012 Y142.112 F7800.000
G1 E154.83040 F2400.00000
G92 E0
G1 X100.915 Y136.293 F7800.000
G1 X101.952 Y130.410 F7800.000
G1 X101.248 Y130.410 F7800.000
G1 X100.232 Y124.647 F7800.000
G1 X100.304 Y125.476 F7800.000
G1 E2.00000 F2400.00000
G1 X99.374 Y125.476 E2.11045 F1800.000
G1 X98.458 Y125.314 E2.22091
G1 X97.585 Y124.996 E2.33136
G1 X96.779 Y124.531 E2.44181
G1 X96.083 Y123.947 E2.54966
G1 X95.471 Y123.225 E2.66216
G1 X95.004 Y122.415 E2.77314
G1 X94.686 Y121.542 E2.88359
G1 X94.524 Y120.626 E2.99404
G1 X94.524 Y119.696 E3.10449
G1 X94.686 Y118.780 E3.21495
G1 X95.004 Y117.906 E3.32540
G1 X95.469 Y117.100 E3.43585
G1 X96.053 Y116.405 E3.54370
G1 X96.775 Y115.792 E3.65620
G1 X97.585 Y115.325 E3.76718
G1 X98.458 Y115.007 E3.87763
G1 X99.374 Y114.846 E3.98808
G1 X100.304 Y114.846 E4.09853 F1800.000
G1 X101.220 Y115.007 E4.20898
G1 X102.094 Y115.325 E4.31944
G1 X102.900 Y115.790 E4.42989
G1 X103.595 Y116.374 E4.53774
G1 X104.208 Y117.097 E4.65024
G1 X104.675 Y117.906 E4.76121
G1 X104.993 Y118.780 E4.87166
G1 X105.154 Y119.696 E4.98212
G1 X105.154 Y120.626 E5.09257
G1 X104.993 Y121.542 E5.20303
G1 X104.675 Y122.415 E5.31348
