; generated by Slic3r 1.2.9 on 2016-05-03 at 09:58:12

; external perimeters extrusion width = 0.30mm
; perimeters extrusion width = 0.40mm
; infill extrusion width = 0.40mm
; solid infill extrusion width = 0.40mm
; top infill extrusion width = 0.40mm
; support material extrusion width = 0.30mm

M107
M190 S75 ; set bed temperature
M104 S210 ; set temperature

M109 S210 ; wait for temperature to be reached
G21 ; set units to millimeters
G90 ; use absolute coordinates
M82 ; use absolute distances for extrusion
G92 E0
G1 Z0.300 F7800.000
G1 X32.753 Y74.828 F7800.000
G1 X36.000 Y73.964 E0.22443 F1800.000
G1 X164.000 Y73.964 E8.77552
G1 X166.243 Y74.361 E8.92769
G1 X168.213 Y75.504 E9.07986 F1800.000
G1 X169.672 Y77.253 E9.23204
G1 X170.536 Y80.500 E9.45646
G1 X170.536 Y159.500 E14.73409
G1 X170.139 Y161.743 E14.88626
G1 X168.996 Y163.713 E15.03843
G1 X167.247 Y165.172 E15.19061
G1 X164.000 Y166.036 E15.41504
G1 X36.000 Y166.036 E23.96613
G1 X33.757 Y165.639 E24.11830
G1 X31.787 Y164.496 E24.27047
G1 X30.328 Y162.747 E24.42264
G1 X29.464 Y159.500 E24.64707
G1 X29.464 Y80.500 E29.92470
G1 X29.861 Y78.257 E30.07687
G1 X31.004 Y76.287 E30.22904
G1 X32.719 Y74.857 E30.37820
G1 E28.37820 F2400.00000
G92 E0
G1 X37.371 Y158.129 F7800.000
G1 E2.00000 F2400.00000
G1 X37.371 Y81.871 E7.09442 F1800.000
G1 X162.629 Y81.871 E15.46230
G1 X162.629 Y158.129 E20.55671
G1 X37.416 Y158.129 E28.92158
G1 X36.836 Y158.664 F7800.000
G1 X36.836 Y81.336 E34.08756 F1800.000
G1 X163.164 Y81.336 E42.52701
G1 X163.164 Y158.664 E47.69299
G1 X36.881 Y158.664 E56.12943
G1 X36.300 Y159.200 F7800.000
G1 X36.300 Y80.800 E61.36697 F1800.000
G1 X163.700 Y80.800 E69.87798
G1 X163.700 Y159.200 E75.11552
G1 X36.345 Y159.200 E83.62353
G1 X36.450 Y158.940 F7800.000
G1 X37.693 Y156.781 F7800.000
G1 X38.719 Y157.807 E83.72073 F1800.000
G1 X39.479 Y157.807 E83.77157
G1 X37.693 Y156.021 E83.94068
G1 X37.693 Y155.262 E83.99152
G1 X40.238 Y157.807 E84.23254
G1 X40.997 Y157.807 E84.28339
G1 X37.693 Y154.503 E84.59631
G1 X37.693 Y153.744 E84.64715
G1 X41.756 Y157.807 E85.03198
G1 X42.516 Y157.807 E85.08283
G1 X37.693 Y152.984 E85.53957
G1 X37.693 Y152.225 E85.59041
G1 X43.275 Y157.807 E86.11906
G1 X44.034 Y157.807 E86.16990
G1 X37.693 Y151.466 E86.77046
G1 X37.693 Y150.706 E86.82130
G1 X44.794 Y157.807 E87.49376
G1 X45.553 Y157.807 E87.54461
G1 X37.693 Y149.947 E88.28897
G1 X37.693 Y149.188 E88.33982
G1 X46.312 Y157.807 E89.15610
G1 X47.071 Y157.807 E89.20694
G1 X37.693 Y148.429 E90.09512
G1 X37.693 Y147.669 E90.14597
G1 X47.831 Y157.807 E91.10606
G1 X48.590 Y157.807 E91.15691
G1 X37.693 Y146.910 E92.18890
G1 X37.693 Y146.151 E92.23975
G1 X49.349 Y157.807 E93.34366
G1 X50.109 Y157.807 E93.39450
G1 X37.693 Y145.391 E94.57032
G1 X37.693 Y144.632 E94.62116
G1 X50.868 Y157.807 E95.86888
G1 X51.627 Y157.807 E95.91973
G1 X37.693 Y143.873 E97.23936
G1 X37.693 Y143.113 E97.29020
G1 X52.387 Y157.807 E98.68174
G1 X53.146 Y157.807 E98.73258
G1 X37.693 Y142.354 E100.19603
G1 X37.693 Y141.595 E100.24687
G1 X53.905 Y157.807 E101.78222
G1 X54.664 Y157.807 E101.83307
G1 X37.693 Y140.836 E103.44033
G1 X37.693 Y140.076 E103.49118
G1 X55.424 Y157.807 E105.17034
G1 X56.183 Y157.807 E105.22119
G1 X37.693 Y139.317 E106.97226
G1 X37.693 Y138.558 E107.02311
G1 X56.942 Y157.807 E108.84609
G1 X57.702 Y157.807 E108.89694
G1 X37.693 Y137.798 E110.79182
G1 X37.693 Y137.039 E110.84267
G1 X58.461 Y157.807 E112.80947
G1 X59.220 Y157.807 E112.86031
G1 X37.693 Y136.280 E114.89902
G1 X37.693 Y135.521 E114.94986
G1 X59.979 Y157.807 E117.06047
G1 X60.739 Y157.807 E117.11132
G1 X37.693 Y134.761 E119.29384
G1 X37.693 Y134.002 E119.34469
G1 X61.498 Y157.807 E121.59911
G1 X62.257 Y157.807 E121.64996
G1 X37.693 Y133.243 E123.97629
G1 X37.693 Y132.483 E124.02714
G1 X63.017 Y157.807 E126.42538
G1 X63.776 Y157.807 E126.47623
G1 X37.693 Y131.724 E128.94638
G1 X37.693 Y130.965 E128.99722
G1 X64.535 Y157.807 E131.53928
G1 X65.294 Y157.807 E131.59013
G1 X37.693 Y130.205 E134.20409
G1 X37.693 Y129.446 E134.25494
G1 X66.054 Y157.807 E136.94081
G1 X66.813 Y157.807 E136.99166
G1 X37.693 Y128.687 E139.74944
G1 X37.693 Y127.928 E139.80028
G1 X67.572 Y157.807 E142.62997
G1 X68.332 Y157.807 E142.68082
G1 X37.693 Y127.168 E145.58241
G1 X37.693 Y126.409 E145.63326
G1 X69.091 Y157.807 E148.60676
G1 X69.850 Y157.807 E148.65761
G1 X37.693 Y125.650 E151.70302
G1 X37.693 Y124.890 E151.75386
G1 X70.610 Y157.807 E154.87118
G1 X71.369 Y157.807 E154.92203
G1 X37.693 Y124.131 E158.11125
G1 X37.693 Y123.372 E158.16210
G1 X72.128 Y157.807 E161.42323
G1 X72.887 Y157.807 E161.47408
G1 X37.693 Y122.613 E164.80712
G1 X37.693 Y121.853 E164.85797
G1 X73.647 Y157.807 E168.26291
G1 X74.406 Y157.807 E168.31376
G1 X37.693 Y121.094 E171.79062
G1 X37.693 Y120.335 E171.84146
G1 X75.165 Y157.807 E175.39023
G1 X75.925 Y157.807 E175.44107
G1 X37.693 Y119.575 E179.06174
G1 X37.693 Y118.816 E179.11259
G1 X76.684 Y157.807 E182.80517
G1 X77.443 Y157.807 E182.85601
G1 X37.693 Y118.057 E186.62050
G1 X37.693 Y117.298 E186.67135
G1 X78.202 Y157.807 E190.50774
G1 X78.962 Y157.807 E190.55859
G1 X37.693 Y116.538 E194.46689
G1 X37.693 Y115.779 E194.51773
G1 X79.721 Y157.807 E198.49794
G1 X80.480 Y157.807 E198.54879
G1 X37.693 Y115.020 E202.60091
G1 X37.693 Y114.260 E202.65175
G1 X81.240 Y157.807 E206.77578
G1 X81.999 Y157.807 E206.82662
G1 X37.693 Y113.501 E211.02255
G1 X37.693 Y112.742 E211.07340
G1 X82.758 Y157.807 E215.34124
G1 X83.518 Y157.807 E215.39209
G1 X37.693 Y111.982 E219.73183
G1 X37.693 Y111.223 E219.78268
G1 X84.277 Y157.807 E224.19433
G1 X85.036 Y157.807 E224.24518
G1 X37.693 Y110.464 E228.72874
G1 X37.693 Y109.705 E228.77959
G1 X85.795 Y157.807 E233.33506
G1 X86.555 Y157.807 E233.38590
G1 X37.693 Y108.945 E238.01328
G1 X37.693 Y108.186 E238.06413
G1 X87.314 Y157.807 E242.76341
G1 X88.073 Y157.807 E242.81426
G1 X37.693 Y107.427 E247.58545
G1 X37.693 Y106.667 E247.63630
G1 X88.833 Y157.807 E252.47940
G1 X89.592 Y157.807 E252.53024
G1 X37.693 Y105.908 E257.44525
G1 X37.693 Y105.149 E257.49610
G1 X90.351 Y157.807 E262.48301
G1 X91.110 Y157.807 E262.53386
G1 X37.693 Y104.390 E267.59268
G1 X37.693 Y103.630 E267.64353
G1 X91.870 Y157.807 E272.77426
G1 X92.629 Y157.807 E272.82510
G1 X37.693 Y102.871 E278.02774
G1 X37.693 Y102.112 E278.07859
G1 X93.388 Y157.807 E283.35313
G1 X94.148 Y157.807 E283.40398
G1 X37.693 Y101.352 E288.75043
G1 X37.693 Y100.593 E288.80128
G1 X94.907 Y157.807 E294.21964
G1 X95.666 Y157.807 E294.27049
G1 X37.693 Y99.834 E299.76076
G1 X37.693 Y99.074 E299.81160
G1 X96.426 Y157.807 E305.37378
G1 X97.185 Y157.807 E305.42462
G1 X37.693 Y98.315 E311.05871
G1 X37.693 Y97.556 E311.10955
G1 X97.944 Y157.807 E316.81555
G1 X98.703 Y157.807 E316.86639
G1 X37.693 Y96.797 E322.64429
G1 X37.693 Y96.037 E322.69514
G1 X99.463 Y157.807 E328.54494
G1 X100.222 Y157.807 E328.59579
G1 X37.693 Y95.278 E334.51750
G1 X37.693 Y94.519 E334.56835
G1 X100.981 Y157.807 E340.56197
G1 X101.741 Y157.807 E340.61282
G1 X37.693 Y93.759 E346.67835
G1 X37.693 Y93.000 E346.72919
G1 X102.500 Y157.807 E352.86663
G1 X103.259 Y157.807 E352.91748
G1 X37.693 Y92.241 E359.12682
G1 X37.693 Y91.482 E359.17767
G1 X104.018 Y157.807 E365.45892
G1 X104.778 Y157.807 E365.50976
G1 X37.693 Y90.722 E371.86292
G1 X37.693 Y89.963 E371.91377
G1 X105.537 Y157.807 E378.33884
G1 X106.296 Y157.807 E378.38968
G1 X37.693 Y89.204 E384.88666
G1 X37.693 Y88.444 E384.93750
G1 X107.056 Y157.807 E391.50639
G1 X107.815 Y157.807 E391.55723
G1 X37.693 Y87.685 E398.19802
G1 X37.693 Y86.926 E398.24887
G1 X108.574 Y157.807 E404.96157
G1 X109.334 Y157.807 E405.01241
G1 X37.693 Y86.166 E411.79702
G1 X37.693 Y85.407 E411.84786
G1 X110.093 Y157.807 E418.70438
G1 X110.852 Y157.807 E418.75522
G1 X37.693 Y84.648 E425.68364
G1 X37.693 Y83.889 E425.73449
G1 X111.611 Y157.807 E432.73482
G1 X112.371 Y157.807 E432.78566
G1 X37.693 Y83.129 E439.85790
G1 X37.693 Y82.370 E439.90875
G1 X113.130 Y157.807 E447.05289
G1 X113.889 Y157.807 E447.10373
G1 X38.275 Y82.193 E454.26465
G1 X39.034 Y82.193 E454.31550
G1 X114.649 Y157.807 E461.47642
G1 X115.408 Y157.807 E461.52726
G1 X39.794 Y82.193 E468.68818
G1 X40.553 Y82.193 E468.73903
G1 X116.167 Y157.807 E475.89995
G1 X116.926 Y157.807 E475.95079
G1 X41.312 Y82.193 E483.11171
G1 X42.071 Y82.193 E483.16256
G1 X117.686 Y157.807 E490.32347
G1 X118.445 Y157.807 E490.37432
G1 X42.831 Y82.193 E497.53524
G1 X43.590 Y82.193 E497.58609
G1 X119.204 Y157.807 E504.74700
G1 X119.964 Y157.807 E504.79785
G1 X44.349 Y82.193 E511.95877
G1 X45.109 Y82.193 E512.00961
G1 X120.723 Y157.807 E519.17053
G1 X121.482 Y157.807 E519.22138
G1 X45.868 Y82.193 E526.38230
G1 X46.627 Y82.193 E526.43314
G1 X122.242 Y157.807 E533.59406
G1 X123.001 Y157.807 E533.64491
G1 X47.387 Y82.193 E540.80583
G1 X48.146 Y82.193 E540.85667
G1 X123.760 Y157.807 E548.01759
G1 X124.519 Y157.807 E548.06844
G1 X48.905 Y82.193 E555.22935
G1 X49.664 Y82.193 E555.28020
G1 X125.279 Y157.807 E562.44112
G1 X126.038 Y157.807 E562.49197
G1 X50.424 Y82.193 E569.65288
G1 X51.183 Y82.193 E569.70373
G1 X126.797 Y157.807 E576.86465
G1 X127.557 Y157.807 E576.91549
G1 X51.942 Y82.193 E584.07641
G1 X52.702 Y82.193 E584.12726
G1 X128.316 Y157.807 E591.28818
G1 X129.075 Y157.807 E591.33902
G1 X53.461 Y82.193 E598.49994
G1 X54.220 Y82.193 E598.55079
G1 X129.834 Y157.807 E605.71171
G1 X130.594 Y157.807 E605.76255
G1 X54.979 Y82.193 E612.92347
G1 X55.739 Y82.193 E612.97432
G1 X131.353 Y157.807 E620.13523
G1 X132.112 Y157.807 E620.18608
G1 X56.498 Y82.193 E627.34700
G1 X57.257 Y82.193 E627.39785
G1 X132.872 Y157.807 E634.55876
G1 X133.631 Y157.807 E634.60961
G1 X58.017 Y82.193 E641.77053
G1 X58.776 Y82.193 E641.82137
G1 X134.390 Y157.807 E648.98229
G1 X135.150 Y157.807 E649.03314
G1 X59.535 Y82.193 E656.19406
G1 X60.295 Y82.193 E656.24490
G1 X135.909 Y157.807 E663.40582
G1 X136.668 Y157.807 E663.45667
G1 X61.054 Y82.193 E670.61759
G1 X61.813 Y82.193 E670.66843
G1 X137.427 Y157.807 E677.82935
G1 X138.187 Y157.807 E677.88020
G1 X62.572 Y82.193 E685.04111
G1 X63.332 Y82.193 E685.09196
G1 X138.946 Y157.807 E692.25288
G1 X139.705 Y157.807 E692.30373
G1 X64.091 Y82.193 E699.46464
G1 X64.850 Y82.193 E699.51549
G1 X140.465 Y157.807 E706.67641
G1 X141.224 Y157.807 E706.72725
G1 X65.610 Y82.193 E713.88817
G1 X66.369 Y82.193 E713.93902
G1 X141.983 Y157.807 E721.09994
G1 X142.742 Y157.807 E721.15078
G1 X67.128 Y82.193 E728.31170
G1 X67.887 Y82.193 E728.36255
G1 X143.502 Y157.807 E735.52347
G1 X144.261 Y157.807 E735.57431
G1 X68.647 Y82.193 E742.73523
G1 X69.406 Y82.193 E742.78608
G1 X145.020 Y157.807 E749.94699
G1 X145.780 Y157.807 E749.99784
G1 X70.165 Y82.193 E757.15876
G1 X70.925 Y82.193 E757.20960
G1 X146.539 Y157.807 E764.37052
G1 X147.298 Y157.807 E764.42137
G1 X71.684 Y82.193 E771.58229
G1 X72.443 Y82.193 E771.63313
G1 X148.057 Y157.807 E778.79405
G1 X148.817 Y157.807 E778.84490
G1 X73.203 Y82.193 E786.00582
G1 X73.962 Y82.193 E786.05666
G1 X149.576 Y157.807 E793.21758
G1 X150.335 Y157.807 E793.26843
G1 X74.721 Y82.193 E800.42934
G1 X75.480 Y82.193 E800.48019
G1 X151.095 Y157.807 E807.64111
G1 X151.854 Y157.807 E807.69196
G1 X76.240 Y82.193 E814.85287
G1 X76.999 Y82.193 E814.90372
G1 X152.613 Y157.807 E822.06464
G1 X153.373 Y157.807 E822.11548
G1 X77.758 Y82.193 E829.27640
G1 X78.518 Y82.193 E829.32725
G1 X154.132 Y157.807 E836.48817
G1 X154.891 Y157.807 E836.53901
G1 X79.277 Y82.193 E843.69993
G1 X80.036 Y82.193 E843.75078
G1 X155.650 Y157.807 E850.91170
G1 X156.410 Y157.807 E850.96254
G1 X80.795 Y82.193 E858.12346
G1 X81.555 Y82.193 E858.17431
G1 X157.169 Y157.807 E865.33522
G1 X157.928 Y157.807 E865.38607
G1 X82.314 Y82.193 E872.54699
G1 X83.073 Y82.193 E872.59784
G1 X158.688 Y157.807 E879.75875
G1 X159.447 Y157.807 E879.80960
G1 X83.833 Y82.193 E886.97052
G1 X84.592 Y82.193 E887.02136
G1 X160.206 Y157.807 E894.18228
G1 X160.965 Y157.807 E894.23313
G1 X85.351 Y82.193 E901.39405
G1 X86.111 Y82.193 E901.44489
G1 X161.725 Y157.807 E908.60581
G1 X162.307 Y157.630 E908.64657
G1 X86.870 Y82.193 E915.79073
G1 X87.629 Y82.193 E915.84158
G1 X162.307 Y156.871 E922.91383
G1 X162.307 Y156.112 E922.96467
G1 X88.388 Y82.193 E929.96502
G1 X89.148 Y82.193 E930.01587
G1 X162.307 Y155.352 E936.94430
G1 X162.307 Y154.593 E936.99515
G1 X89.907 Y82.193 E943.85168
G1 X90.666 Y82.193 E943.90253
G1 X162.307 Y153.834 E950.68715
G1 X162.307 Y153.074 E950.73800
G1 X91.426 Y82.193 E957.45071
G1 X92.185 Y82.193 E957.50156
G1 X162.307 Y152.315 E964.14236
G1 X162.307 Y151.556 E964.19321
G1 X92.944 Y82.193 E970.76211
G1 X93.703 Y82.193 E970.81296
G1 X162.307 Y150.797 E977.30995
G1 X162.307 Y150.037 E977.36079
G1 X94.463 Y82.193 E983.78588
G1 X95.222 Y82.193 E983.83673
G1 X162.307 Y149.278 E990.18990
G1 X162.307 Y148.519 E990.24075
G1 X95.981 Y82.193 E996.52202
G1 X96.741 Y82.193 E996.57286
G1 X162.307 Y147.759 E1002.78223
G1 X162.307 Y147.000 E1002.83307
G1 X97.500 Y82.193 E1008.97053
G1 X98.259 Y82.193 E1009.02137
G1 X162.307 Y146.241 E1015.08692
G1 X162.307 Y145.481 E1015.13777
G1 X99.019 Y82.193 E1021.13141
G1 X99.778 Y82.193 E1021.18225
G1 X162.307 Y144.722 E1027.10398
G1 X162.307 Y143.963 E1027.15483
G1 X100.537 Y82.193 E1033.00465
G1 X101.296 Y82.193 E1033.05550
G1 X162.307 Y143.204 E1038.83342
G1 X162.307 Y142.444 E1038.88426
G1 X102.056 Y82.193 E1044.59027
G1 X102.815 Y82.193 E1044.64112
G1 X162.307 Y141.685 E1050.27522
G1 X162.307 Y140.926 E1050.32606
G1 X103.574 Y82.193 E1055.88826
G1 X104.334 Y82.193 E1055.93910
G1 X162.307 Y140.166 E1061.42939
G1 X162.307 Y139.407 E1061.48024
G1 X105.093 Y82.193 E1066.89862
G1 X105.852 Y82.193 E1066.94946
G1 X162.307 Y138.648 E1072.29593
G1 X162.307 Y137.889 E1072.34678
G1 X106.611 Y82.193 E1077.62134
G1 X107.371 Y82.193 E1077.67219
G1 X162.307 Y137.129 E1082.87484
G1 X162.307 Y136.370 E1082.92569
G1 X108.130 Y82.193 E1088.05644
G1 X108.889 Y82.193 E1088.10728
G1 X162.307 Y135.611 E1093.16612
G1 X162.307 Y134.851 E1093.21697
G1 X109.649 Y82.193 E1098.20390
G1 X110.408 Y82.193 E1098.25475
G1 X162.307 Y134.092 E1103.16978
G1 X162.307 Y133.333 E1103.22062
G1 X111.167 Y82.193 E1108.06374
G1 X111.927 Y82.193 E1108.11459
G1 X162.307 Y132.573 E1112.88580
G1 X162.307 Y131.814 E1112.93664
G1 X112.686 Y82.193 E1117.63594
G1 X113.445 Y82.193 E1117.68679
G1 X162.307 Y131.055 E1122.31419
G1 X162.307 Y130.296 E1122.36503
G1 X114.204 Y82.193 E1126.92052
G1 X114.964 Y82.193 E1126.97137
G1 X162.307 Y129.536 E1131.45495
G1 X162.307 Y128.777 E1131.50579
G1 X115.723 Y82.193 E1135.91746
G1 X116.482 Y82.193 E1135.96831
G1 X162.307 Y128.018 E1140.30807
G1 X162.307 Y127.258 E1140.35892
G1 X117.242 Y82.193 E1144.62678
G1 X118.001 Y82.193 E1144.67762
G1 X162.307 Y126.499 E1148.87357
G1 X162.307 Y125.740 E1148.92442
G1 X118.760 Y82.193 E1153.04846
G1 X119.519 Y82.193 E1153.09931
G1 X162.307 Y124.981 E1157.15144
G1 X162.307 Y124.221 E1157.20229
G1 X120.279 Y82.193 E1161.18251
G1 X121.038 Y82.193 E1161.23336
G1 X162.307 Y123.462 E1165.14168
G1 X162.307 Y122.703 E1165.19253
G1 X121.797 Y82.193 E1169.02894
G1 X122.557 Y82.193 E1169.07978
G1 X162.307 Y121.943 E1172.84429
G1 X162.307 Y121.184 E1172.89513
G1 X123.316 Y82.193 E1176.58773
G1 X124.075 Y82.193 E1176.63858
G1 X162.307 Y120.425 E1180.25926
G1 X162.307 Y119.666 E1180.31011
G1 X124.834 Y82.193 E1183.85889
G1 X125.594 Y82.193 E1183.90974
G1 X162.307 Y118.906 E1187.38661
G1 X162.307 Y118.147 E1187.43746
G1 X126.353 Y82.193 E1190.84242
G1 X127.112 Y82.193 E1190.89327
G1 X162.307 Y117.388 E1194.22633
G1 X162.307 Y116.628 E1194.27717
G1 X127.872 Y82.193 E1197.53833
G1 X128.631 Y82.193 E1197.58917
G1 X162.307 Y115.869 E1200.77841
G1 X162.307 Y115.110 E1200.82926
G1 X129.390 Y82.193 E1203.94660
G1 X130.150 Y82.193 E1203.99744
G1 X162.307 Y114.350 E1207.04287
G1 X162.307 Y113.591 E1207.09372
G1 X130.909 Y82.193 E1210.06724
G1 X131.668 Y82.193 E1210.11808
G1 X162.307 Y112.832 E1213.01970
G1 X162.307 Y112.073 E1213.07054
G1 X132.427 Y82.193 E1215.90025
G1 X133.187 Y82.193 E1215.95109
G1 X162.307 Y111.313 E1218.70889
G1 X162.307 Y110.554 E1218.75974
G1 X133.946 Y82.193 E1221.44563
G1 X134.705 Y82.193 E1221.49647
G1 X162.307 Y109.795 E1224.11046
G1 X162.307 Y109.035 E1224.16130
G1 X135.465 Y82.193 E1226.70338
