; generated by Slic3r 1.2.9 on 2016-04-21 at 18:53:18

; external perimeters extrusion width = 0.30mm
; perimeters extrusion width = 0.40mm
; infill extrusion width = 0.40mm
; solid infill extrusion width = 0.40mm
; top infill extrusion width = 0.40mm
; support material extrusion width = 0.30mm

M107
M190 S75 ; set bed temperature
M104 S210 ; set temperature

M109 S210 ; wait for temperature to be reached
G21 ; set units to millimeters
G90 ; use absolute coordinates
M82 ; use absolute distances for extrusion
G92 E0
G1 Z0.300 F7800.000
G1 E-2.00000 F2400.00000
G92 E0
G1 X91.766 Y110.337 F7800.000
G1 E2.00000 F2400.00000
G1 X95.013 Y109.474 E2.22441 F1800.000
G1 X104.988 Y109.474 E2.89080
G1 X107.230 Y109.871 E3.04297 F1800.000
G1 X109.201 Y111.014 E3.19514
G1 X110.660 Y112.763 E3.34731
G1 X111.523 Y116.009 E3.57172
G1 X111.523 Y123.988 E4.10470
G1 X111.127 Y126.231 E4.25687
G1 X109.984 Y128.201 E4.40905
G1 X108.235 Y129.660 E4.56122
G1 X104.988 Y130.523 E4.78566
G1 X95.012 Y130.523 E5.45211
G1 X92.769 Y130.126 E5.60428
G1 X90.798 Y128.984 E5.75645
G1 X89.340 Y127.234 E5.90862
G1 X88.477 Y123.988 E6.13305
G1 X88.477 Y116.009 E6.66604
G1 X88.874 Y113.766 E6.81821
G1 X90.017 Y111.796 E6.97038
G1 X91.732 Y110.366 E7.11955
G1 E5.11955 F2400.00000
G92 E0
G1 X103.617 Y122.617 F7800.000
G1 E2.00000 F2400.00000
G1 X96.383 Y122.617 E2.48321 F1800.000
G1 X96.384 Y117.381 E2.83297
G1 X103.616 Y117.381 E3.31614
G1 X103.617 Y122.572 E3.66291
G1 X104.152 Y123.152 F7800.000
G1 X95.848 Y123.152 E4.21768 F1800.000
G1 X95.848 Y116.846 E4.63900
G1 X104.152 Y116.845 E5.19374
G1 X104.152 Y123.107 E5.61207
G1 X104.688 Y123.688 F7800.000
G1 X95.312 Y123.688 E6.23842 F1800.000
G1 X95.313 Y116.310 E6.73131
G1 X104.688 Y116.310 E7.35761
G1 X104.688 Y123.643 E7.84751
G1 X104.428 Y123.538 F7800.000
G1 X103.295 Y117.970 F7800.000
G1 X103.027 Y117.703 E7.87286 F1800.000
G1 X102.267 Y117.703 E7.92387
G1 X103.295 Y118.730 E8.02136
G1 X103.295 Y119.491 E8.07238
G1 X101.506 Y117.703 E8.24201
G1 X100.746 Y117.703 E8.29302
G1 X103.295 Y120.252 E8.53481
G1 X103.295 Y121.012 E8.58582
G1 X99.985 Y117.703 E8.89975
G1 X99.225 Y117.703 E8.95076
G1 X103.295 Y121.773 E9.33683
G1 X103.057 Y122.295 E9.37533
G1 X98.464 Y117.703 E9.81094
G1 X97.704 Y117.703 E9.86195
G1 X102.296 Y122.295 E10.29756
G1 X101.536 Y122.295 E10.34857
G1 X96.943 Y117.703 E10.78418
G1 X96.705 Y118.225 E10.82269
G1 X100.775 Y122.295 E11.20874
G1 X100.014 Y122.295 E11.25975
G1 X96.705 Y118.986 E11.57366
G1 X96.705 Y119.746 E11.62467
G1 X99.254 Y122.295 E11.86643
G1 X98.493 Y122.295 E11.91745
G1 X96.705 Y120.507 E12.08708
G1 X96.705 Y121.267 E12.13809
G1 X97.733 Y122.295 E12.23557
G1 X96.972 Y122.295 E12.28659
G1 X96.705 Y122.028 E12.31194
G1 Z0.300 F7800.000
G1 Z0.500 F7800.000
G1 X104.107 Y123.107 F7800.000
G1 X95.893 Y123.107 E12.55333 F900.000
G1 X95.893 Y116.891 E12.73602
G1 X104.107 Y116.890 E12.97742
G1 X104.107 Y123.062 E13.15880
G1 X104.460 Y123.460 F7800.000
G1 X95.539 Y123.461 E13.42097 F900.000
G1 X95.539 Y116.537 E13.62444
G1 X104.461 Y116.537 E13.88661
G1 X104.460 Y123.415 E14.08876
G1 X104.766 Y123.766 F7800.000
G1 X95.234 Y123.766 E14.29251 F900.000
G1 X95.234 Y116.231 E14.45357
G1 X104.766 Y116.231 E14.65732
G1 X104.766 Y123.721 E14.81741
G1 X104.506 Y123.616 F7800.000
G1 X103.712 Y122.902 F7800.000
G1 X103.902 Y122.712 E14.82545 F1200.000
G1 X103.902 Y122.203 E14.84067
G1 X103.203 Y122.902 E14.87024
G1 X102.694 Y122.902 E14.88546
G1 X103.902 Y121.694 E14.93655
G1 X103.902 Y121.185 E14.95177
G1 X102.185 Y122.902 E15.02439
G1 X101.676 Y122.902 E15.03961
G1 X103.902 Y120.676 E15.13376
G1 X103.902 Y120.168 E15.14898
G1 X101.168 Y122.902 E15.26465
G1 X100.659 Y122.902 E15.27987
G1 X103.902 Y119.659 E15.41707
G1 X103.902 Y119.150 E15.43230
G1 X100.150 Y122.902 E15.59102
G1 X99.641 Y122.902 E15.60625
G1 X103.902 Y118.641 E15.78650
G1 X103.902 Y118.132 E15.80172
G1 X99.132 Y122.902 E16.00351
G1 X98.623 Y122.902 E16.01873
G1 X103.902 Y117.623 E16.24204
G1 X103.891 Y117.125 E16.25695
G1 X98.115 Y122.902 E16.50134
G1 X97.606 Y122.902 E16.51656
G1 X103.412 Y117.096 E16.76220
G1 X102.903 Y117.096 E16.77743
G1 X97.097 Y122.902 E17.02307
G1 X96.588 Y122.902 E17.03829
G1 X102.394 Y117.096 E17.28393
G1 X101.885 Y117.096 E17.29915
G1 X96.109 Y122.872 E17.54354
G1 X96.098 Y122.374 E17.55845
G1 X101.377 Y117.096 E17.78176
G1 X100.868 Y117.096 E17.79698
G1 X96.098 Y121.865 E17.99876
G1 X96.098 Y121.356 E18.01399
G1 X100.359 Y117.096 E18.19424
G1 X99.850 Y117.096 E18.20946
G1 X96.098 Y120.848 E18.36819
G1 X96.098 Y120.339 E18.38341
G1 X99.341 Y117.096 E18.52061
G1 X98.832 Y117.096 E18.53584
G1 X96.098 Y119.830 E18.65151
G1 X96.098 Y119.321 E18.66673
G1 X98.324 Y117.096 E18.76088
G1 X97.815 Y117.096 E18.77610
G1 X96.098 Y118.812 E18.84872
G1 X96.098 Y118.304 E18.86394
G1 X97.306 Y117.096 E18.91503
G1 X96.797 Y117.096 E18.93025
G1 X96.098 Y117.795 E18.95982
G1 X96.098 Y117.286 E18.97504
G1 X96.288 Y117.096 E18.98307
G1 Z0.700 F7800.000
G1 X103.989 Y122.989 F7800.000
G1 X96.011 Y122.989 E19.21751 F900.000
G1 X96.010 Y117.007 E19.39328
G1 X103.990 Y117.007 E19.62777
G1 X103.989 Y122.944 E19.80222
G1 X104.342 Y123.342 F7800.000
G1 X95.658 Y123.342 E20.05743 F900.000
G1 X95.657 Y116.654 E20.25397
G1 X104.343 Y116.654 E20.50924
G1 X104.342 Y123.297 E20.70446
G1 X104.647 Y123.647 F7800.000
G1 X95.353 Y123.647 E20.90314 F900.000
G1 X95.352 Y116.349 E21.05916
G1 X104.648 Y116.349 E21.25789
G1 X104.647 Y123.602 E21.41294
G1 X104.387 Y123.497 F7800.000
G1 E19.41294 F2400.00000
G92 E0
G1 X103.784 Y117.403 F7800.000
G1 E2.00000 F2400.00000
G1 X103.594 Y117.213 E2.00806 F1200.000
G1 X103.084 Y117.213 E2.02337
G1 X103.784 Y117.913 E2.05308
G1 X103.784 Y118.423 E2.06839
G1 X102.574 Y117.213 E2.11975
G1 X102.063 Y117.213 E2.13507
G1 X103.784 Y118.934 E2.20808
G1 X103.784 Y119.444 E2.22339
G1 X101.553 Y117.213 E2.31805
G1 X101.043 Y117.213 E2.33336
G1 X103.784 Y119.954 E2.44968
G1 X103.784 Y120.464 E2.46498
G1 X100.532 Y117.213 E2.60295
G1 X100.022 Y117.213 E2.61826
G1 X103.784 Y120.974 E2.77788
G1 X103.783 Y121.485 E2.79319
G1 X99.512 Y117.213 E2.97445
G1 X99.001 Y117.213 E2.98976
G1 X103.783 Y121.995 E3.19268
G1 X103.783 Y122.505 E3.20799
G1 X98.491 Y117.213 E3.43256
G1 X97.981 Y117.213 E3.44787
G1 X103.551 Y122.783 E3.68423
G1 X103.041 Y122.783 E3.69954
G1 X97.470 Y117.213 E3.93591
G1 X96.960 Y117.213 E3.95122
G1 X102.530 Y122.783 E4.18758
G1 X102.020 Y122.783 E4.20289
G1 X96.450 Y117.213 E4.43925
G1 X96.216 Y117.489 E4.45012
G1 X101.510 Y122.783 E4.67475
G1 X100.999 Y122.783 E4.69006
G1 X96.216 Y118.000 E4.89303
G1 X96.216 Y118.510 E4.90835
G1 X100.489 Y122.783 E5.08966
G1 X99.979 Y122.783 E5.10498
G1 X96.216 Y119.021 E5.26464
G1 X96.216 Y119.531 E5.27995
G1 X99.468 Y122.783 E5.41795
G1 X98.958 Y122.783 E5.43326
G1 X96.216 Y120.041 E5.54961
G1 X96.216 Y120.552 E5.56492
G1 X98.448 Y122.783 E5.65961
G1 X97.938 Y122.783 E5.67492
G1 X96.216 Y121.062 E5.74795
G1 X96.217 Y121.572 E5.76327
G1 X97.427 Y122.783 E5.81464
G1 X96.917 Y122.783 E5.82995
G1 X96.217 Y122.083 E5.85967
G1 X96.217 Y122.593 E5.87498
G1 X96.407 Y122.783 E5.88304
M106 S234.6
G1 Z0.900 F7800.000
G1 X103.788 Y122.788 F7800.000
G1 X96.211 Y122.788 E6.10571 F900.000
G1 X96.210 Y117.207 E6.26973
G1 X103.790 Y117.207 E6.49249
G1 X103.788 Y122.743 E6.65519
G1 X104.142 Y123.141 F7800.000
G1 X95.858 Y123.142 E6.89862 F900.000
G1 X95.856 Y116.853 E7.08342
G1 X104.144 Y116.853 E7.32696
G1 X104.142 Y123.096 E7.51042
G1 X104.447 Y123.447 F7800.000
G1 X95.553 Y123.447 E7.70054 F900.000
G1 X95.551 Y116.548 E7.84801
G1 X104.449 Y116.548 E8.03821
G1 X104.447 Y123.402 E8.18471
G1 X104.187 Y123.297 F7800.000
G1 X103.393 Y122.583 F7800.000
G1 X103.583 Y122.393 E8.19293 F1200.000
G1 X103.583 Y121.873 E8.20882
G1 X102.873 Y122.583 E8.23952
G1 X102.353 Y122.583 E8.25541
G1 X103.583 Y121.353 E8.30859
G1 X103.583 Y120.832 E8.32449
G1 X101.833 Y122.583 E8.40015
G1 X101.313 Y122.583 E8.41605
G1 X103.584 Y120.312 E8.51419
G1 X103.584 Y119.792 E8.53009
G1 X100.793 Y122.583 E8.65072
G1 X100.273 Y122.583 E8.66662
G1 X103.584 Y119.272 E8.80973
G1 X103.584 Y118.752 E8.82563
G1 X99.753 Y122.583 E8.99123
G1 X99.234 Y122.583 E9.00712
G1 X103.584 Y118.232 E9.19520
G1 X103.584 Y117.712 E9.21110
G1 X98.714 Y122.583 E9.42167
G1 X98.194 Y122.583 E9.43756
G1 X103.364 Y117.412 E9.66108
G1 X102.844 Y117.412 E9.67698
G1 X97.674 Y122.583 E9.90050
G1 X97.154 Y122.583 E9.91639
G1 X102.324 Y117.412 E10.13992
G1 X101.804 Y117.412 E10.15581
G1 X96.634 Y122.583 E10.37933
G1 X96.417 Y122.280 E10.39072
G1 X101.285 Y117.412 E10.60116
G1 X100.765 Y117.412 E10.61705
G1 X96.417 Y121.760 E10.80502
G1 X96.416 Y121.241 E10.82091
G1 X100.245 Y117.412 E10.98641
G1 X99.725 Y117.412 E11.00230
G1 X96.416 Y120.721 E11.14533
G1 X96.416 Y120.201 E11.16122
G1 X99.205 Y117.412 E11.28178
G1 X98.685 Y117.412 E11.29767
G1 X96.416 Y119.681 E11.39576
G1 X96.416 Y119.162 E11.41165
G1 X98.165 Y117.412 E11.48727
G1 X97.645 Y117.412 E11.50316
G1 X96.416 Y118.642 E11.55631
G1 X96.416 Y118.122 E11.57220
G1 X97.125 Y117.412 E11.60288
G1 X96.605 Y117.412 E11.61877
G1 X96.415 Y117.602 E11.62698
M106 S239.7
G1 Z1.100 F7800.000
G1 E9.62698 F2400.00000
G92 E0
G1 X102.839 Y121.839 F7800.000
G1 E2.00000 F2400.00000
G1 X97.161 Y121.839 E2.16687 F900.000
G1 X97.161 Y118.158 E2.27505
G1 X102.839 Y118.158 E2.44192
G1 X102.839 Y121.794 E2.54878
G1 X103.193 Y122.193 F7800.000
G1 X96.807 Y122.193 E2.73643 F900.000
G1 X96.807 Y117.805 E2.86538
G1 X103.193 Y117.805 E3.05303
G1 X103.193 Y122.148 E3.18066
G1 X103.546 Y122.546 F7800.000
G1 X96.454 Y122.546 E3.38908 F900.000
G1 X96.454 Y117.451 E3.53880
G1 X103.546 Y117.451 E3.74722
G1 X103.546 Y122.501 E3.89562
G1 X103.851 Y122.851 F7800.000
G1 X96.149 Y122.851 E4.06027 F900.000
G1 X96.149 Y117.146 E4.18223
G1 X103.851 Y117.146 E4.34688
G1 X103.851 Y122.806 E4.46788
G1 X103.592 Y122.701 F7800.000
G1 E2.46788 F2400.00000
G92 E0
G1 X102.634 Y118.553 F7800.000
G1 E2.00000 F2400.00000
G1 X102.444 Y118.364 E2.00805 F900.000
G1 X101.934 Y118.364 E2.02334
G1 X102.634 Y119.063 E2.05301
G1 X102.634 Y119.573 E2.06829
G1 X101.424 Y118.364 E2.11958
G1 X100.914 Y118.364 E2.13486
G1 X102.634 Y120.083 E2.20777
G1 X102.634 Y120.593 E2.22305
G1 X100.404 Y118.364 E2.31757
G1 X99.894 Y118.364 E2.33285
G1 X102.634 Y121.103 E2.44899
G1 X102.624 Y121.603 E2.46399
G1 X99.385 Y118.364 E2.60134
G1 X98.875 Y118.364 E2.61663
G1 X102.145 Y121.634 E2.75527
G1 X101.635 Y121.634 E2.77056
G1 X98.365 Y118.364 E2.90920
G1 X97.855 Y118.364 E2.92449
G1 X101.125 Y121.634 E3.06313
G1 X100.615 Y121.634 E3.07842
G1 X97.376 Y118.394 E3.21576
G1 X97.366 Y118.895 E3.23077
G1 X100.106 Y121.634 E3.34690
G1 X99.596 Y121.634 E3.36218
G1 X97.366 Y119.404 E3.45670
G1 X97.366 Y119.914 E3.47198
G1 X99.086 Y121.634 E3.54488
G1 X98.576 Y121.634 E3.56017
G1 X97.366 Y120.424 E3.61145
G1 X97.369 Y120.937 E3.62682
G1 X98.066 Y121.634 E3.65637
G1 X97.556 Y121.634 E3.67165
G1 X97.366 Y121.444 E3.67970
M106 S255
G1 Z1.300 F7800.000
G1 E1.67970 F2400.00000
G92 E0
G1 X101.635 Y121.208 F7800.000
G1 E2.00000 F2400.00000
G1 X101.543 Y121.333 E2.00455 F807.020
G1 X101.333 Y121.543 E2.01328
G1 X101.105 Y121.714 E2.02166
G1 X100.854 Y121.851 E2.03007
G1 X100.576 Y121.956 E2.03882
G1 X100.285 Y122.019 E2.04755
G1 X100.000 Y122.039 E2.05595
G1 X99.715 Y122.019 E2.06435
G1 X99.424 Y121.956 E2.07309
G1 X99.146 Y121.851 E2.08183
G1 X98.895 Y121.714 E2.09024
G1 X98.676 Y121.550 E2.09828
G1 X98.455 Y121.330 E2.10745
G1 X98.284 Y121.103 E2.11580
G1 X98.147 Y120.852 E2.12419
G1 X98.043 Y120.574 E2.13293
G1 X97.981 Y120.283 E2.14167
G1 X97.961 Y119.997 E2.15008
G1 X97.981 Y119.713 E2.15847
G1 X98.045 Y119.421 E2.16724
G1 X98.145 Y119.153 E2.17565
G1 X98.282 Y118.902 E2.18404
G1 X98.459 Y118.664 E2.19277
G1 X98.670 Y118.454 E2.20152
G1 X98.900 Y118.283 E2.20992
G1 X99.150 Y118.146 E2.21831
G1 X99.428 Y118.043 E2.22704
G1 X99.721 Y117.980 E2.23582
G1 X99.994 Y117.961 E2.24388
G1 X100.280 Y117.981 E2.25231
G1 X100.572 Y118.043 E2.26106 F807.020
G1 X100.850 Y118.146 E2.26979
G1 X101.100 Y118.283 E2.27818
G1 X101.328 Y118.453 E2.28654
G1 X101.548 Y118.673 E2.29567
G1 X101.718 Y118.902 E2.30406
G1 X101.850 Y119.143 E2.31212
G1 X101.956 Y119.422 E2.32090
G1 X102.019 Y119.713 E2.32963
G1 X102.039 Y119.997 E2.33799
G1 X102.018 Y120.293 E2.34672
G1 X101.953 Y120.584 E2.35548
G1 X101.853 Y120.852 E2.36390
G1 X101.662 Y121.172 E2.37485
G1 X101.919 Y121.419 F7800.000
G1 X101.812 Y121.564 E2.38016 F807.020
G1 X101.566 Y121.811 E2.39040
G1 X101.297 Y122.012 E2.40027
G1 X101.002 Y122.173 E2.41015
G1 X100.676 Y122.296 E2.42039
G1 X100.335 Y122.370 E2.43063
G1 X100.000 Y122.394 E2.44051
G1 X99.665 Y122.370 E2.45038
G1 X99.324 Y122.296 E2.46062
G1 X98.998 Y122.173 E2.47087
G1 X98.703 Y122.012 E2.48075
G1 X98.444 Y121.818 E2.49024
G1 X98.187 Y121.563 E2.50090
G1 X97.986 Y121.294 E2.51075
G1 X97.825 Y121.000 E2.52062
G1 X97.703 Y120.673 E2.53086
G1 X97.630 Y120.332 E2.54111
G1 X97.606 Y119.997 E2.55099
G1 X97.630 Y119.662 E2.56085
G1 X97.705 Y119.321 E2.57111
G1 X97.823 Y119.006 E2.58101
G1 X97.983 Y118.711 E2.59086
G1 X98.192 Y118.432 E2.60110
G1 X98.439 Y118.186 E2.61135
G1 X98.708 Y117.985 E2.62123
G1 X99.003 Y117.824 E2.63110
G1 X99.329 Y117.702 E2.64133
G1 X99.671 Y117.630 E2.65160
G1 X99.994 Y117.607 E2.66111
G1 X100.329 Y117.630 E2.67100
G1 X100.671 Y117.702 E2.68125 F807.020
G1 X100.997 Y117.824 E2.69148
G1 X101.292 Y117.985 E2.70135
G1 X101.560 Y118.185 E2.71120
G1 X101.816 Y118.442 E2.72184
G1 X102.017 Y118.711 E2.73171
G1 X102.172 Y118.995 E2.74122
G1 X102.295 Y119.322 E2.75148
G1 X102.370 Y119.662 E2.76172
G1 X102.394 Y119.997 E2.77158
G1 X102.369 Y120.344 E2.78181
G1 X102.293 Y120.684 E2.79206
G1 X102.175 Y120.999 E2.80195
G1 X101.946 Y121.383 E2.81506
G1 X102.165 Y121.601 F7800.000
G1 X102.044 Y121.764 E2.81941 F807.020
G1 X101.766 Y122.042 E2.82780
G1 X101.463 Y122.269 E2.83591
G1 X101.130 Y122.451 E2.84402
G1 X100.762 Y122.590 E2.85242
G1 X100.378 Y122.673 E2.86081
G1 X100.000 Y122.700 E2.86892
G1 X99.622 Y122.673 E2.87703
G1 X99.238 Y122.590 E2.88542
G1 X98.870 Y122.451 E2.89382
G1 X98.537 Y122.269 E2.90193
G1 X98.244 Y122.050 E2.90975
G1 X97.956 Y121.763 E2.91844
G1 X97.729 Y121.460 E2.92655
G1 X97.547 Y121.127 E2.93465
G1 X97.409 Y120.759 E2.94305
G1 X97.327 Y120.375 E2.95144
G1 X97.300 Y119.997 E2.95955
G1 X97.328 Y119.618 E2.96766
G1 X97.411 Y119.234 E2.97606
G1 X97.544 Y118.879 E2.98418
G1 X97.726 Y118.546 E2.99228
G1 X97.961 Y118.231 E3.00067
G1 X98.239 Y117.954 E3.00907
G1 X98.543 Y117.727 E3.01718
G1 X98.876 Y117.546 E3.02529
G1 X99.244 Y117.409 E3.03368
G1 X99.628 Y117.327 E3.04208
G1 X99.993 Y117.301 E3.04991
G1 X100.372 Y117.327 E3.05802
G1 X100.756 Y117.409 E3.06642 F807.020
G1 X101.124 Y117.546 E3.07481
G1 X101.457 Y117.727 E3.08292
G1 X101.761 Y117.954 E3.09102
G1 X102.048 Y118.242 E3.09971
G1 X102.274 Y118.546 E3.10781
G1 X102.450 Y118.867 E3.11564
G1 X102.589 Y119.235 E3.12404
G1 X102.672 Y119.618 E3.13243
G1 X102.700 Y119.997 E3.14054
G1 X102.671 Y120.388 E3.14893
G1 X102.586 Y120.772 E3.15733
G1 X102.453 Y121.127 E3.16544
G1 X102.278 Y121.448 E3.17326
G1 X102.191 Y121.564 E3.17636
G1 X101.963 Y121.577 F7800.000
G1 X101.486 Y120.966 F7800.000
G1 X100.962 Y121.490 E3.20009 F1076.027
G1 X101.821 Y120.085 F7800.000
G1 X100.085 Y121.822 E3.27875 F1076.027
G1 X99.570 Y121.792 E3.29527
G1 X101.792 Y119.570 E3.39593
G1 X101.656 Y119.161 E3.40973
G1 X99.161 Y121.656 E3.52276
G1 X98.836 Y121.436 E3.53533
G1 X101.436 Y118.836 E3.65312
G1 X101.164 Y118.564 E3.66546
G1 X98.563 Y121.164 E3.78326
G1 X98.344 Y120.839 E3.79582
G1 X100.839 Y118.344 E3.90884
G1 X100.430 Y118.208 E3.92265
G1 X98.208 Y120.430 E4.02329
G1 X98.178 Y119.915 E4.03981
G1 X99.915 Y118.178 E4.11849
G1 X99.037 Y118.511 F7800.000
G1 X98.513 Y119.035 E4.14221 F1076.027
G1 Z1.500 F7800.000
G1 X101.633 Y121.210 F7800.000
G1 X101.545 Y121.330 E4.14657 F807.532
G1 X101.331 Y121.544 E4.15547
G1 X101.107 Y121.712 E4.16370
G1 X100.861 Y121.848 E4.17196
G1 X100.577 Y121.956 E4.18090
G1 X100.280 Y122.020 E4.18983
G1 X100.000 Y122.039 E4.19807
G1 X99.720 Y122.020 E4.20631
