; generated by Slic3r 1.2.9 on 2016-05-03 at 14:14:31

; external perimeters extrusion width = 0.30mm
; perimeters extrusion width = 0.40mm
; infill extrusion width = 0.40mm
; solid infill extrusion width = 0.40mm
; top infill extrusion width = 0.40mm
; support material extrusion width = 0.30mm

M107
M190 S75 ; set bed temperature
M104 S210 ; set temperature

M109 S210 ; wait for temperature to be reached
G21 ; set units to millimeters
G90 ; use absolute coordinates
M82 ; use absolute distances for extrusion
G92 E0
G1 Z0.300 F7800.000
G1 E-2.00000 F2400.00000
G92 E0
G1 X77.067 Y108.933 F7800.000
G1 E2.00000 F2400.00000
G1 X78.972 Y107.683 E2.15217 F1800.000
G1 X80.795 Y107.197 E2.27823
G1 X82.067 Y107.049 E2.36381
G1 X82.832 Y107.005 E2.41500
G1 X118.753 Y107.058 E4.81473
G1 X120.996 Y107.458 E4.96691 F1800.000
G1 X123.156 Y108.771 E5.13578
G1 X124.799 Y110.275 E5.28456
G1 X126.186 Y112.082 E5.43673
G1 X126.922 Y115.119 E5.64554
G1 X126.914 Y117.527 E5.80637
G1 X126.221 Y120.432 E6.00593
G1 X125.679 Y121.515 E6.08684
G1 X124.319 Y123.343 E6.23901
G1 X122.927 Y124.345 E6.35357
G1 X108.000 Y132.360 E7.48548
G1 X107.119 Y132.760 E7.55009
G1 X106.144 Y133.077 E7.61860
G1 X105.838 Y133.150 E7.63957
G1 X104.826 Y133.310 E7.70808
G1 X104.513 Y133.335 E7.72904
G1 X104.000 Y133.355 E7.76333
G1 X96.000 Y133.355 E8.29777
G1 X95.487 Y133.335 E8.33205
G1 X95.174 Y133.310 E8.35302
G1 X94.161 Y133.150 E8.42153
G1 X93.856 Y133.077 E8.44250
G1 X92.881 Y132.760 E8.51101
G1 X91.960 Y132.338 E8.57867
G1 X77.187 Y124.272 E9.70311
G1 X75.409 Y122.849 E9.85528
G1 X74.498 Y121.507 E9.96361
G1 X73.893 Y120.323 E10.05246
G1 X73.227 Y118.145 E10.20463
G1 X73.349 Y115.870 E10.35680
G1 X73.871 Y114.423 E10.45958
G1 X75.707 Y110.760 E10.73328
G1 X77.040 Y108.969 E10.88245
G1 E8.88245 F2400.00000
G92 E0
G1 X104.280 Y125.377 F7800.000
G1 E2.00000 F2400.00000
G1 X104.098 Y125.436 E2.01279 F1800.000
G1 X103.946 Y125.448 E2.02295
G1 X96.054 Y125.448 E2.55020
G1 X95.807 Y125.413 E2.56685
G1 X95.633 Y125.325 E2.57990
G1 X95.558 Y125.261 E2.58645
G1 X95.442 Y125.099 E2.59976
G1 X95.406 Y125.012 E2.60604
G1 X95.371 Y124.766 E2.62270
G1 X95.371 Y116.873 E3.14994
G1 X95.406 Y116.627 E3.16660
G1 X95.444 Y116.536 E3.17315
G1 X95.558 Y116.378 E3.18620
G1 X95.710 Y116.267 E3.19873
G1 X95.811 Y116.225 E3.20605
G1 X96.054 Y116.191 E3.22245
G1 X104.090 Y116.202 E3.75929
G1 X104.284 Y116.263 E3.77286 F1800.000
G1 X104.367 Y116.314 E3.77941
G1 X104.505 Y116.452 E3.79246
G1 X104.594 Y116.627 E3.80551
G1 X104.629 Y116.873 E3.82217
G1 X104.629 Y124.766 E4.34941
G1 X104.617 Y124.917 E4.35957
G1 X104.556 Y125.103 E4.37262
G1 X104.442 Y125.261 E4.38568
G1 X104.318 Y125.354 E4.39599
G1 X104.485 Y125.872 F7800.000
G1 X104.182 Y125.967 E4.41720 F1800.000
G1 X103.967 Y125.984 E4.43158
G1 X96.033 Y125.984 E4.96164
G1 X95.818 Y125.967 E4.97602
G1 X95.641 Y125.924 E4.98820
G1 X95.473 Y125.855 E5.00038
G1 X95.317 Y125.759 E5.01256
G1 X95.178 Y125.641 E5.02474
G1 X95.066 Y125.510 E5.03629
G1 X94.964 Y125.345 E5.04924
G1 X94.895 Y125.179 E5.06126
G1 X94.853 Y125.001 E5.07344
G1 X94.836 Y124.787 E5.08782
G1 X94.836 Y116.852 E5.61788
G1 X94.853 Y116.638 E5.63226
G1 X94.895 Y116.460 E5.64444
G1 X94.965 Y116.292 E5.65662
G1 X95.060 Y116.137 E5.66879
G1 X95.178 Y115.998 E5.68097
G1 X95.317 Y115.880 E5.69315
G1 X95.465 Y115.789 E5.70470
G1 X95.643 Y115.714 E5.71766
G1 X95.818 Y115.672 E5.72968
G1 X96.033 Y115.655 E5.74406
G1 X103.967 Y115.655 E6.27412
G1 X104.172 Y115.671 E6.28787
G1 X104.361 Y115.715 E6.30082 F1800.000
G1 X104.527 Y115.784 E6.31284
G1 X104.683 Y115.880 E6.32502
G1 X104.822 Y115.998 E6.33720
G1 X104.940 Y116.137 E6.34938
G1 X105.035 Y116.292 E6.36156
G1 X105.105 Y116.460 E6.37374
G1 X105.147 Y116.638 E6.38592
G1 X105.164 Y116.852 E6.40030
G1 X105.164 Y124.787 E6.93035
G1 X105.147 Y125.001 E6.94473
G1 X105.105 Y125.179 E6.95691
G1 X105.035 Y125.347 E6.96909
G1 X104.940 Y125.502 E6.98127
G1 X104.822 Y125.641 E6.99345
G1 X104.690 Y125.753 E7.00500
G1 X104.526 Y125.855 E7.01787
G1 X104.690 Y126.367 F7800.000
G1 X104.525 Y126.435 E7.02979 F1800.000
G1 X104.266 Y126.498 E7.04760
G1 X103.988 Y126.520 E7.06620
G1 X96.012 Y126.520 E7.59907
G1 X95.734 Y126.498 E7.61767
G1 X95.475 Y126.435 E7.63548
G1 X95.229 Y126.333 E7.65329
G1 X95.001 Y126.194 E7.67110
G1 X94.799 Y126.021 E7.68892
G1 X94.633 Y125.826 E7.70600
G1 X94.486 Y125.590 E7.72459
G1 X94.384 Y125.345 E7.74234
G1 X94.322 Y125.085 E7.76015
G1 X94.300 Y124.808 E7.77875
G1 X94.300 Y116.831 E8.31162
G1 X94.322 Y116.554 E8.33022
G1 X94.384 Y116.294 E8.34803
G1 X94.486 Y116.048 E8.36585
G1 X94.625 Y115.821 E8.38366
G1 X94.799 Y115.618 E8.40147
G1 X95.001 Y115.445 E8.41928
G1 X95.219 Y115.311 E8.43636
G1 X95.476 Y115.203 E8.45495
G1 X95.734 Y115.141 E8.47270
G1 X96.012 Y115.120 E8.49131
G1 X103.988 Y115.120 E9.02417
G1 X104.255 Y115.140 E9.04205
G1 X104.526 Y115.204 E9.06063 F1800.000
G1 X104.771 Y115.306 E9.07839
G1 X104.999 Y115.445 E9.09620
G1 X105.201 Y115.618 E9.11401
G1 X105.375 Y115.821 E9.13182
G1 X105.514 Y116.048 E9.14963
G1 X105.616 Y116.294 E9.16744
G1 X105.678 Y116.554 E9.18526
G1 X105.700 Y116.831 E9.20386
G1 X105.700 Y124.808 E9.73673
G1 X105.678 Y125.085 E9.75533
G1 X105.616 Y125.345 E9.77314
G1 X105.514 Y125.591 E9.79095
G1 X105.375 Y125.818 E9.80876
G1 X105.201 Y126.021 E9.82657
G1 X105.007 Y126.187 E9.84365
G1 X104.731 Y126.350 E9.86504
G1 X104.544 Y126.264 F7800.000
G1 X96.052 Y125.105 F7800.000
G1 X95.713 Y124.767 E9.89815 F1800.000
G1 X95.693 Y123.962 E9.95378
G1 X96.857 Y125.127 E10.06761
G1 X97.641 Y125.127 E10.12181
G1 X95.693 Y123.179 E10.31228
G1 X95.693 Y122.395 E10.36648
G1 X98.425 Y125.127 E10.63361
G1 X99.209 Y125.127 E10.68781
G1 X95.693 Y121.611 E11.03158
G1 X95.693 Y120.827 E11.08578
G1 X99.993 Y125.127 E11.50621
G1 X100.777 Y125.127 E11.56041
G1 X95.693 Y120.043 E12.05748
G1 X95.693 Y119.259 E12.11168
G1 X101.561 Y125.127 E12.68541
G1 X102.345 Y125.127 E12.73961
G1 X95.693 Y118.475 E13.38998
G1 X95.693 Y117.691 E13.44418
G1 X103.128 Y125.127 E14.17120
G1 X103.912 Y125.127 E14.22540
G1 X95.693 Y116.907 E15.02908
G1 X96.082 Y116.513 E15.06740
G1 X104.307 Y124.737 E15.87160
G1 X104.307 Y123.953 E15.92580
G1 X96.867 Y116.514 E16.65323
G1 X97.652 Y116.515 E16.70751
G1 X104.307 Y123.170 E17.35819
G1 X104.307 Y122.386 E17.41239
G1 X98.437 Y116.516 E17.98631
G1 X99.222 Y116.517 E18.04058
G1 X104.307 Y121.602 E18.53775
G1 X104.307 Y120.818 E18.59194
G1 X100.007 Y116.518 E19.01235
G1 X100.792 Y116.519 E19.06663
G1 X104.307 Y120.034 E19.41027
G1 X104.307 Y119.250 E19.46447
G1 X101.578 Y116.520 E19.73136
G1 X102.363 Y116.521 E19.78564
G1 X104.307 Y118.466 E19.97577
G1 X104.307 Y117.682 E20.02997
G1 X103.148 Y116.523 E20.14335
G1 X103.943 Y116.534 E20.19838
G1 X104.288 Y116.879 E20.23202
G1 Z0.300 F7800.000
G1 E18.23202 F2400.00000
G92 E0
G1 X106.347 Y116.810 F7800.000
G1 E2.00000 F2400.00000
G1 X106.578 Y116.350 E2.03440 F1800.000
G1 X107.884 Y116.134 E2.12284
G1 X106.358 Y119.179 E2.35040
G1 X106.358 Y121.570 E2.51012
G1 X109.379 Y115.542 E2.96055
G1 X110.748 Y115.202 F7800.000
G1 X107.352 Y121.977 E3.46679 F1800.000
G1 X108.877 Y121.326 E3.57755
G1 X112.055 Y114.984 E4.05143
G1 X113.363 Y114.766 E4.13999
G1 X110.064 Y121.348 E4.63181
G1 X111.389 Y121.095 F7800.000
G1 X112.119 Y119.639 E4.74058 F1800.000
G1 X112.872 Y120.528 E4.81837
G1 X116.234 Y113.820 E5.31959
G1 X117.541 Y113.602 F7800.000
G1 X114.314 Y120.042 E5.80080 F1800.000
G1 X115.576 Y119.914 F7800.000
G1 X118.744 Y113.593 E6.27315 F1800.000
G1 X119.540 Y114.395 E6.34865
G1 X116.859 Y119.744 E6.74834
G1 X118.342 Y119.176 F7800.000
G1 X120.387 Y115.097 E7.05321 F1800.000
G1 E5.05321 F2400.00000
G92 E0
G1 X120.379 Y117.504 F7800.000
G1 E2.00000 F2400.00000
G1 X119.836 Y118.587 E2.08091 F1800.000
G1 E0.08091 F2400.00000
G92 E0
G1 X114.926 Y114.038 F7800.000
G1 E2.00000 F2400.00000
G1 X112.180 Y119.517 E2.40939 F1800.000
G1 E0.40939 F2400.00000
G92 E0
G1 X92.941 Y122.042 F7800.000
G1 E2.00000 F2400.00000
G1 X93.642 Y120.643 E2.10457 F1800.000
G1 X91.910 Y121.708 E2.24045
G1 X93.642 Y118.252 E2.49873
G1 X93.393 Y116.358 E2.62633
G1 X90.879 Y121.375 E3.00117
G1 X89.845 Y121.047 E3.07364
G1 X92.307 Y116.133 E3.44081
G1 X91.297 Y115.759 E3.51281
G1 X88.772 Y120.796 E3.88919
G1 X87.700 Y120.544 E3.96276
G1 X90.241 Y115.474 E4.34166
G1 X89.186 Y115.189 E4.41469
G1 X86.628 Y120.293 E4.79612
G1 X85.556 Y120.042 E4.86969
G1 X88.092 Y114.981 E5.24788
G1 X87.038 Y114.693 F7800.000
G1 X84.494 Y119.768 E5.62715 F1800.000
G1 X83.424 Y119.513 E5.70067
G1 X85.984 Y114.405 E6.08241
G1 X84.930 Y114.117 F7800.000
G1 X82.353 Y119.258 E6.46662 F1800.000
G1 X81.283 Y119.003 E6.54013
G1 X83.876 Y113.829 E6.92682
G1 X82.823 Y113.541 F7800.000
G1 X80.319 Y118.536 E7.30010 F1800.000
G1 X79.714 Y117.351 E7.38894
G1 X81.550 Y113.689 E7.66264
G1 Z0.400 F7800.000
G1 X81.310 Y113.747 F7800.000
G1 X81.151 Y113.644 E7.66483 F3600.000
G1 X81.009 Y114.214 E7.67163
G1 X80.687 Y114.409 E7.67599
G1 X80.614 Y114.497 E7.67731
G1 X79.683 Y115.267 E7.69130
G1 X79.680 Y115.753 E7.69693
G1 X81.310 Y115.753 E7.71580
G1 X81.310 Y113.747 E7.73904
G1 X81.031 Y115.475 F7800.000
G1 X81.031 Y115.117 E7.74318 F3600.000
G1 X80.825 Y115.475 E7.74795
G1 X81.031 Y115.475 E7.75034
G1 E5.75034 F2400.00000
G92 E0
G1 X85.335 Y115.018 F7800.000
G1 E2.00000 F2400.00000
G1 X85.018 Y114.526 E2.00678 F3600.000
G1 X83.397 Y114.976 E2.02626
G1 X83.023 Y115.203 E2.03133
G1 X82.948 Y115.293 E2.03268
G1 X82.532 Y115.637 E2.03893
G1 X82.263 Y115.956 E2.04376
G1 X82.149 Y116.414 E2.04923
G1 X82.144 Y117.154 E2.05780
G1 X82.224 Y117.527 E2.06221
G1 X82.393 Y117.811 E2.06604
G1 X82.873 Y118.449 E2.07528
G1 X83.029 Y118.621 E2.07798
G1 X83.495 Y118.993 E2.08488
G1 X85.161 Y118.993 E2.10417
G1 X86.604 Y116.493 E2.13760
G1 X86.830 Y116.493 E2.14021
G1 X87.541 Y116.236 E2.14897
G1 X86.604 Y116.236 E2.15982
G1 X85.823 Y114.883 E2.17791
G1 X85.335 Y115.018 E2.18378
G1 X85.458 Y114.695 F7800.000
G1 X85.141 Y114.203 E2.19056 F3600.000
G1 X83.286 Y114.718 E2.21286
G1 X82.839 Y114.989 E2.21891
G1 X82.751 Y115.094 E2.22049
G1 X82.335 Y115.438 E2.22674
G1 X82.009 Y115.825 E2.23261
G1 X81.871 Y116.379 E2.23922
G1 X81.866 Y117.182 E2.24852
G1 X81.961 Y117.629 E2.25381
G1 X82.161 Y117.966 E2.25835
G1 X82.658 Y118.626 E2.26792
G1 X82.836 Y118.822 E2.27098
G1 X84.165 Y119.858 E2.29049
G1 X84.487 Y119.538 E2.29574
G1 X85.260 Y120.132 E2.30703
G1 X85.571 Y119.824 E2.31209
G1 X86.226 Y120.377 E2.32203
G1 X86.613 Y120.050 E2.32790
G1 X87.326 Y120.653 E2.33871
G1 X87.714 Y120.325 E2.34458
G1 X88.427 Y120.928 E2.35539
G1 X88.814 Y120.600 E2.36127
G1 X89.527 Y121.203 E2.37208
G1 X89.915 Y120.875 E2.37795
G1 X90.628 Y121.478 E2.38876
G1 X91.015 Y121.150 E2.39463
G1 X91.728 Y121.753 E2.40544
G1 X92.115 Y121.426 E2.41131
G1 X92.828 Y122.028 E2.42212
G1 X93.216 Y121.701 E2.42800
G1 X93.550 Y121.983 E2.43307
G1 X93.550 Y116.802 E2.49307
G1 X93.572 Y116.522 E2.49632
G1 X93.328 Y116.574 E2.49921
G1 X93.140 Y116.103 E2.50508
G1 X92.171 Y116.311 E2.51657
G1 X91.873 Y115.689 E2.52455
G1 X91.019 Y115.998 E2.53506
G1 X90.747 Y115.430 E2.54236
G1 X89.894 Y115.738 E2.55287
G1 X89.621 Y115.170 E2.56017
G1 X88.803 Y115.466 E2.57024
G1 X88.595 Y114.985 E2.57631
G1 X87.910 Y115.176 E2.58455
G1 X87.910 Y115.295 E2.58593
G1 X87.694 Y115.358 E2.58853
G1 X87.310 Y114.761 E2.59674
G1 X86.542 Y114.975 E2.60597
G1 X86.225 Y114.482 E2.61275
G1 X85.458 Y114.695 E2.62198
G1 E0.62198 F2400.00000
G92 E0
G1 X87.380 Y116.590 F7800.000
G1 E2.00000 F2400.00000
G1 X87.910 Y116.398 E2.00652 F3600.000
G1 X87.910 Y116.863 E2.01190
G1 X87.380 Y116.590 E2.01880
G1 E0.01880 F2400.00000
G92 E0
G1 X87.303 Y118.625 F7800.000
G1 E2.00000 F2400.00000
G1 X87.771 Y118.611 E2.00542 F3600.000
G1 X87.589 Y118.870 E2.00909
G1 X88.273 Y118.904 E2.01701
G1 X88.872 Y118.887 E2.02395
G1 X88.690 Y119.145 E2.02761
G1 X89.373 Y119.180 E2.03553
G1 X89.582 Y119.173 E2.03796
G1 X89.664 Y119.555 E2.04248
G1 X89.811 Y119.803 E2.04582
G1 X86.905 Y119.803 E2.07946
G1 X87.560 Y119.250 E2.08938
G1 X86.804 Y118.640 E2.10062
G1 X87.303 Y118.625 E2.10640
G1 E0.10640 F2400.00000
G92 E0
G1 X85.377 Y119.624 F7800.000
G1 E2.00000 F2400.00000
G1 X85.161 Y119.250 E2.00501 F3600.000
G1 X84.569 Y119.250 E2.01186
G1 X85.237 Y119.763 E2.02162
G1 X85.377 Y119.624 E2.02390
G1 X84.141 Y119.489 F7800.000
G1 X84.382 Y119.250 E2.02783 F3600.000
G1 X83.830 Y119.250 E2.03422
G1 X84.141 Y119.489 E2.03877
G1 E0.03877 F2400.00000
G92 E0
G1 X90.877 Y116.346 F7800.000
G1 E2.00000 F2400.00000
G1 X90.605 Y115.777 E2.00730 F3600.000
G1 X90.094 Y115.962 E2.01359
G1 X89.936 Y116.236 E2.01724
G1 X88.188 Y116.236 E2.03749
G1 X88.188 Y116.493 E2.04046
G1 X89.936 Y116.493 E2.06071
G1 X91.380 Y118.993 E2.09414
G1 X93.271 Y118.993 E2.11605
G1 X93.271 Y116.871 E2.14061
G1 X93.156 Y116.896 E2.14197
G1 X92.969 Y116.425 E2.14785
G1 X92.015 Y116.630 E2.15915
G1 X91.731 Y116.037 E2.16676
G1 X90.877 Y116.346 E2.17727
G1 E0.17727 F2400.00000
G92 E0
G1 X93.271 Y121.383 F7800.000
G1 E2.00000 F2400.00000
G1 X93.271 Y119.250 E2.02471 F3600.000
G1 X91.380 Y119.250 E2.04661
G1 X90.410 Y120.929 E2.06907
G1 X90.628 Y121.113 E2.07237
G1 X91.015 Y120.786 E2.07824
G1 X91.728 Y121.388 E2.08906
G1 X92.115 Y121.061 E2.09493
G1 X92.828 Y121.663 E2.10574
G1 X93.216 Y121.336 E2.11161
G1 X93.271 Y121.383 E2.11246
G1 E0.11246 F2400.00000
G92 E0
G1 X107.481 Y116.493 F7800.000
G1 E2.00000 F2400.00000
G1 X107.142 Y116.395 E2.00409 F3600.000
G1 X107.095 Y116.493 E2.00534
G1 X107.481 Y116.493 E2.00981
G1 E0.00981 F2400.00000
G92 E0
G1 X109.939 Y116.675 F7800.000
G1 E2.00000 F2400.00000
G1 X111.066 Y116.675 E2.01305 F3600.000
G1 X111.225 Y117.330 E2.02086
G1 X110.859 Y117.518 E2.02563
G1 X110.414 Y117.789 E2.03167
G1 X109.738 Y117.248 E2.04169
G1 X109.939 Y116.675 E2.04873
G1 X110.137 Y116.953 F7800.000
G1 X110.847 Y116.953 E2.05696 F3600.000
G1 X110.903 Y117.183 E2.05969
G1 X110.436 Y117.450 E2.06593
G1 X110.066 Y117.154 E2.07141
G1 X110.137 Y116.953 E2.07387
G1 E0.07387 F2400.00000
G92 E0
G1 X112.411 Y118.870 F7800.000
G1 E2.00000 F2400.00000
G1 X112.229 Y118.611 E2.00366 F3600.000
G1 X113.215 Y118.641 E2.01508
G1 X112.398 Y119.274 E2.02705
G1 X112.929 Y119.803 E2.03573
G1 X110.191 Y119.803 E2.06744
G1 X110.424 Y119.173 E2.07521
G1 X110.627 Y119.180 E2.07757
G1 X111.310 Y119.145 E2.08549
G1 X111.128 Y118.887 E2.08915
G1 X111.727 Y118.904 E2.09609
G1 X112.411 Y118.870 E2.10401
G1 X112.107 Y120.082 F7800.000
G1 X110.001 Y120.082 E2.12840 F3600.000
G1 X109.507 Y120.937 E2.13984
G1 X109.951 Y120.598 E2.14632
G1 X110.272 Y120.918 E2.15157
G1 X111.059 Y120.317 E2.16304
G1 X111.380 Y120.637 E2.16830
G1 X112.107 Y120.082 E2.17889
G1 X112.488 Y120.356 F7800.000
G1 X112.848 Y120.082 E2.18413 F3600.000
G1 X112.213 Y120.082 E2.19148
G1 X112.488 Y120.356 E2.19598
G1 X114.077 Y119.708 F7800.000
G1 X113.813 Y119.250 E2.20211 F3600.000
G1 X112.877 Y119.250 E2.21295
G1 X112.815 Y119.297 E2.21385
G1 X113.596 Y120.075 E2.22662
G1 X114.077 Y119.708 E2.23363
G1 E0.23363 F2400.00000
G92 E0
G1 X114.534 Y114.984 F7800.000
G1 E2.00000 F2400.00000
G1 X113.753 Y114.767 E2.00938 F3600.000
G1 X113.510 Y115.281 E2.01595
G1 X112.654 Y115.043 E2.02625
G1 X112.411 Y115.556 E2.03282
G1 X111.555 Y115.319 E2.04311
G1 X111.312 Y115.832 E2.04969
G1 X110.455 Y115.595 E2.05998
G1 X110.211 Y116.111 E2.06660
G1 X109.219 Y115.975 E2.07819
G1 X109.068 Y116.358 E2.08296
G1 X108.643 Y116.236 E2.08809
G1 X108.186 Y116.236 E2.09338
G1 X108.063 Y116.493 E2.09668
G1 X109.038 Y116.493 E2.10797
G1 X110.425 Y118.895 E2.14009
G1 X110.792 Y118.892 E2.14434
G1 X110.581 Y118.591 E2.14860
G1 X111.892 Y118.617 E2.16380
G1 X111.681 Y118.316 E2.16806
G1 X114.007 Y118.386 E2.19500
G1 X113.213 Y118.993 E2.20657
G1 X113.813 Y118.993 E2.21351
G1 X115.257 Y116.493 E2.24694
G1 X118.589 Y116.493 E2.28553
G1 X119.501 Y118.074 E2.30667
G1 X120.259 Y118.198 E2.31556
G1 X119.779 Y117.287 E2.32749
G1 X120.047 Y116.934 E2.33263
G1 X120.040 Y115.400 E2.35039
G1 X119.384 Y114.857 E2.36024
G1 X118.589 Y116.236 E2.37868
G1 X115.257 Y116.236 E2.41726
G1 X114.534 Y114.984 E2.43400
G1 E0.43400 F2400.00000
G92 E0
