; generated by Slic3r 1.2.9 on 2016-05-01 at 13:14:04

; external perimeters extrusion width = 0.30mm
; perimeters extrusion width = 0.40mm
; infill extrusion width = 0.40mm
; solid infill extrusion width = 0.40mm
; top infill extrusion width = 0.40mm
; support material extrusion width = 0.30mm

M107
M190 S75 ; set bed temperature
M104 S210 ; set temperature

M109 S210 ; wait for temperature to be reached
G21 ; set units to millimeters
G90 ; use absolute coordinates
M82 ; use absolute distances for extrusion
G92 E0
G1 Z0.300 F7800.000
G1 E-2.00000 F2400.00000
G92 E0
G1 X79.364 Y113.655 F7800.000
G1 E2.00000 F2400.00000
G1 X80.041 Y113.217 E2.05386 F1800.000
G1 X80.603 Y112.892 E2.09727
G1 X82.105 Y112.209 E2.20748
G1 X82.804 Y111.944 E2.25740
G1 X84.739 Y111.394 E2.39181
G1 X87.099 Y110.976 E2.55192
G1 X89.773 Y110.736 E2.73126
G1 X90.220 Y110.713 E2.76120
G1 X93.272 Y110.665 E2.96509
G1 X97.502 Y110.834 E3.24789 F1800.000
G1 X102.083 Y111.220 E3.55505
G1 X107.921 Y111.905 E3.94770
G1 X114.953 Y112.911 E4.42226
G1 X118.985 Y113.544 E4.69495
G1 X121.140 Y114.284 E4.84712
G1 X122.909 Y115.718 E4.99929
G1 X124.079 Y117.673 E5.15146
G1 X124.507 Y119.910 E5.30363
G1 X124.141 Y122.158 E5.45580
G1 X123.026 Y124.145 E5.60797
G1 X121.296 Y125.627 E5.76014
G1 X118.996 Y126.455 E5.92346
G1 X112.119 Y127.513 E6.38829
G1 X107.827 Y128.108 E6.67775
G1 X104.136 Y128.561 E6.92618
G1 X100.926 Y128.894 E7.14181
G1 X98.104 Y129.126 E7.33096
G1 X95.509 Y129.273 E7.50461
G1 X93.349 Y129.335 E7.64899
G1 X91.304 Y129.327 E7.78555
G1 X89.613 Y129.258 E7.89862
G1 X87.924 Y129.121 E8.01181
G1 X86.018 Y128.860 E8.14039
G1 X84.999 Y128.663 E8.20969
G1 X83.668 Y128.329 E8.30140
G1 X82.411 Y127.917 E8.38977
G1 X81.899 Y127.717 E8.42646
G1 X81.240 Y127.426 E8.47458
G1 X80.701 Y127.159 E8.51479
G1 X80.106 Y126.826 E8.56028
G1 X79.516 Y126.453 E8.60697
G1 X79.026 Y126.105 E8.64707
G1 X78.492 Y125.682 E8.69263
G1 X78.003 Y125.240 E8.73668
G1 X77.417 Y124.635 E8.79292
G1 X77.068 Y124.223 E8.82899
G1 X76.558 Y123.532 E8.88637
G1 X75.680 Y121.430 E9.03854
G1 X75.576 Y119.155 E9.19071
G1 X76.564 Y116.459 E9.38251
G1 X77.081 Y115.764 E9.44038
G1 X77.496 Y115.278 E9.48307
G1 X78.107 Y114.666 E9.54087
G1 X78.616 Y114.220 E9.58602
G1 X79.328 Y113.682 E9.64566
G1 E7.64566 F2400.00000
G92 E0
G1 X107.715 Y120.142 F7800.000
G1 E2.00000 F2400.00000
G1 X103.304 Y120.698 E2.29707 F1800.000
G1 X100.256 Y121.016 E2.50177
G1 X97.592 Y121.236 E2.68032
G1 X95.272 Y121.370 E2.83562
G1 X93.767 Y121.414 E2.93621
G1 X93.971 Y120.610 E2.99161
G1 X94.022 Y120.005 E3.03215
G1 X93.977 Y119.426 E3.07097
G1 X93.832 Y118.835 E3.11158
G1 X93.729 Y118.594 E3.12913
G1 X97.014 Y118.726 E3.34877
G1 X101.394 Y119.097 E3.64245
G1 X106.919 Y119.748 E4.01410
G1 X107.716 Y119.862 E4.06788
G1 X107.716 Y120.097 E4.08353
G1 X111.534 Y120.145 F7800.000
G1 X106.895 Y120.796 E4.39649 F1800.000
G1 X103.364 Y121.230 E4.63413
G1 X100.306 Y121.549 E4.83955
G1 X97.630 Y121.770 E5.01892
G1 X95.295 Y121.905 E5.17519
G1 X92.799 Y121.962 E5.34198
G1 X93.104 Y121.498 E5.37912
G1 X93.314 Y121.021 E5.41391
G1 X93.441 Y120.521 E5.44839
G1 X93.484 Y120.003 E5.48309
G1 X93.446 Y119.511 E5.51609
G1 X93.323 Y119.006 E5.55082
G1 X93.119 Y118.531 E5.58533
G1 X92.805 Y118.043 E5.62412
G1 X93.190 Y118.036 E5.64986
G1 X97.047 Y118.191 E5.90773
G1 X101.448 Y118.564 E6.20279
G1 X106.989 Y119.217 E6.57548
G1 X111.533 Y119.868 E6.88214
G1 X111.534 Y120.100 E6.89765
G1 X115.132 Y120.134 F7800.000
G1 X111.097 Y120.754 E7.17037 F1800.000
G1 X106.964 Y121.327 E7.44909
G1 X103.425 Y121.762 E7.68734
G1 X100.356 Y122.082 E7.89347
G1 X97.667 Y122.305 E8.07367
G1 X95.318 Y122.440 E8.23089
G1 X93.261 Y122.500 E8.36835
G1 X91.688 Y122.493 E8.47342
G1 X91.628 Y122.251 E8.49010
G1 X91.770 Y122.174 E8.50089
G1 X92.109 Y121.911 E8.52960
G1 X92.397 Y121.598 E8.55796
G1 X92.632 Y121.241 E8.58654
G1 X92.806 Y120.846 E8.61538
G1 X92.911 Y120.432 E8.64392
G1 X92.947 Y120.001 E8.67276
G1 X92.916 Y119.596 E8.69996
G1 X92.813 Y119.176 E8.72881
G1 X92.644 Y118.783 E8.75738
G1 X92.411 Y118.420 E8.78619
G1 X92.122 Y118.102 E8.81489
G1 X91.786 Y117.837 E8.84349
G1 X91.655 Y117.765 E8.85349
G1 X91.715 Y117.525 E8.87001
G1 X93.197 Y117.500 E8.96904
G1 X97.081 Y117.657 E9.22872
G1 X101.502 Y118.031 E9.52515
G1 X107.058 Y118.686 E9.89888
G1 X113.963 Y119.675 E10.36487
G1 X115.132 Y119.858 E10.44395
G1 X115.132 Y120.089 E10.45933
G1 X114.858 Y120.011 F7800.000
G1 X91.393 Y117.576 F7800.000
G1 X90.975 Y117.510 E10.48758 F1800.000
G1 X90.592 Y117.481 E10.51324
G1 X90.165 Y117.488 E10.54182
G1 X89.720 Y117.544 E10.57176
G1 X89.060 Y117.682 E10.61676
G1 X86.821 Y120.962 F7800.000
G1 X86.546 Y120.909 E10.63552 F1800.000
G1 X85.717 Y120.692 E10.69276
G1 X85.033 Y120.457 E10.74105
G1 X84.486 Y120.216 E10.78098
G1 X84.079 Y119.989 E10.81215
G1 X85.244 Y119.467 E10.89747
G1 X86.509 Y119.102 E10.98536
G1 X86.819 Y119.048 E11.00641
G1 X86.731 Y119.390 E11.02997
G1 X86.681 Y120.001 E11.07090
G1 X86.731 Y120.602 E11.11121
G1 X86.810 Y120.918 E11.13301
G1 X87.676 Y121.673 F7800.000
G1 X86.427 Y121.431 E11.21798 F1800.000
G1 X85.562 Y121.205 E11.27771
G1 X84.838 Y120.956 E11.32885
G1 X84.247 Y120.696 E11.37198
G1 X83.746 Y120.416 E11.41032
G1 X83.185 Y120.018 E11.45632
G1 X83.425 Y119.807 E11.47764
G1 X83.991 Y119.441 E11.52268
G1 X85.060 Y118.963 E11.60093
G1 X86.388 Y118.580 E11.69328
G1 X87.663 Y118.358 E11.77973
G1 X87.390 Y118.977 E11.82492
G1 X87.262 Y119.479 E11.85957
G1 X87.218 Y120.001 E11.89452
G1 X87.261 Y120.514 E11.92893
G1 X87.388 Y121.016 E11.96354
G1 X87.658 Y121.632 E12.00845
G1 X88.761 Y122.332 F7800.000
G1 X87.309 Y122.147 E12.10621 F1800.000
G1 X86.308 Y121.954 E12.17431
G1 X85.407 Y121.718 E12.23654
G1 X84.643 Y121.456 E12.29053
G1 X84.008 Y121.176 E12.33686
G1 X83.459 Y120.870 E12.37883
G1 X82.998 Y120.542 E12.41665
G1 X82.615 Y120.194 E12.45120
G1 X82.451 Y120.001 E12.46814
G1 X82.628 Y119.793 E12.48644
G1 X83.101 Y119.379 E12.52841
G1 X83.734 Y118.969 E12.57879
G1 X84.875 Y118.458 E12.66231
G1 X86.268 Y118.057 E12.75910
G1 X88.078 Y117.742 E12.88184
G1 X88.740 Y117.685 E12.92624
G1 X88.827 Y117.909 E12.94229
G1 X88.599 Y118.086 E12.96156
G1 X88.308 Y118.399 E12.99012
G1 X88.071 Y118.760 E13.01898
G1 X87.898 Y119.152 E13.04762
G1 X87.792 Y119.568 E13.07630
G1 X87.756 Y120.000 E13.10528
G1 X87.791 Y120.426 E13.13378
G1 X87.896 Y120.842 E13.16246
G1 X88.068 Y121.235 E13.19113
G1 X88.249 Y121.512 E13.21325
G1 X88.588 Y121.906 E13.24796
G1 X88.848 Y122.108 E13.26997
G1 X88.777 Y122.290 E13.28298
G1 X88.538 Y122.131 F7800.000
G1 X89.083 Y122.330 F7800.000
G1 X89.708 Y122.462 E13.32560 F1800.000
G1 X90.162 Y122.513 E13.35616
G1 X90.577 Y122.521 E13.38389
G1 X90.956 Y122.497 E13.40924
G1 X91.366 Y122.440 E13.43688
G1 X115.432 Y119.996 F7800.000
G1 X117.145 Y119.999 E13.55131 F1800.000
G1 X114.174 Y119.995 F7800.000
G1 X113.244 Y119.998 E13.61343 F1800.000
G1 X113.244 Y119.998 F7800.000
G1 X111.801 Y120.005 E13.81787 F1800.000
G1 X110.514 Y120.008 F7800.000
G1 X109.516 Y120.006 E13.88459 F1800.000
G1 X109.516 Y120.006 F7800.000
G1 X107.984 Y120.003 E14.10157 F1800.000
G1 X106.645 Y120.001 F7800.000
G1 X105.452 Y120.004 E14.18127 F1800.000
G1 X105.452 Y120.004 F7800.000
G1 X103.619 Y120.009 E14.44086 F1800.000
G1 X103.297 Y119.897 F7800.000
G1 X103.027 Y119.627 E14.46674 F1800.000
G1 X103.035 Y120.404 E14.51934
G1 X102.156 Y119.525 E14.60357
G1 X101.285 Y119.422 E14.66295
G1 X102.342 Y120.479 E14.76418
G1 X101.649 Y120.554 E14.81140
G1 X100.445 Y119.349 E14.92676
G1 X99.606 Y119.278 E14.98378
G1 X100.956 Y120.628 E15.11311
G1 X100.261 Y120.702 E15.16042
G1 X98.767 Y119.207 E15.30356
G1 X97.928 Y119.136 E15.36059
G1 X99.552 Y120.760 E15.51614
G1 X98.842 Y120.819 E15.56435
G1 X97.089 Y119.065 E15.73233
G1 X96.278 Y119.023 E15.78727
G1 X98.133 Y120.878 E15.96490
G1 X97.418 Y120.930 E16.01348
G1 X95.478 Y118.991 E16.19924
G1 X94.678 Y118.959 E16.25349
G1 X96.692 Y120.972 E16.44635
G1 X95.965 Y121.014 E16.49561
G1 X94.303 Y119.352 E16.65486
G1 X94.324 Y120.141 E16.70831
G1 X95.236 Y121.052 E16.79566
G1 X94.490 Y121.074 E16.84623
G1 X94.226 Y120.811 E16.87143
G1 E14.87143 F2400.00000
G92 E0
G1 X94.548 Y120.788 F7800.000
G1 X86.035 Y119.916 F7800.000
G1 X86.385 Y119.782 F7800.000
G1 E2.00000 F2400.00000
G1 X86.123 Y119.520 E2.04791 F1800.000
G1 X85.299 Y120.162 E2.18307
G1 X85.033 Y119.896 E2.23178
G1 Z0.300 F7800.000
G1 Z0.500 F7800.000
G1 E0.23178 F2400.00000
G92 E0
G1 X92.742 Y121.984 F7800.000
G1 E2.00000 F2400.00000
G1 X93.072 Y121.480 E2.01769 F5400.000
G1 X93.280 Y121.009 E2.03282
G1 X93.405 Y120.515 E2.04781
G1 X93.448 Y120.003 E2.06290
G1 X93.411 Y119.516 E2.07725
G1 X93.288 Y119.017 E2.09236
G1 X93.087 Y118.548 E2.10737
G1 X92.749 Y118.022 E2.12572
G1 X93.203 Y118.015 E2.13906
G1 X97.068 Y118.171 E2.25273
G1 X101.453 Y118.542 E2.38205
G1 X107.050 Y119.202 E2.54769
G1 X112.010 Y119.912 E2.69494
G1 X112.011 Y120.095 E2.70031
G1 X106.958 Y120.811 E2.85029
G1 X103.387 Y121.250 E2.95602
G1 X100.320 Y121.570 E3.04664
G1 X97.645 Y121.791 E3.12552
G1 X95.309 Y121.926 E3.19428
G1 X93.248 Y121.986 E3.25489
G1 X92.787 Y121.984 E3.26844
G1 X92.036 Y122.334 F7800.000
G1 X91.987 Y122.191 E3.27288 F5400.000
G1 X92.208 Y122.019 E3.28113
G1 X92.513 Y121.689 E3.29431
G1 X92.761 Y121.311 E3.30760
G1 X92.944 Y120.894 E3.32100
G1 X93.056 Y120.456 E3.33426
G1 X93.094 Y120.002 E3.34766
G1 X93.061 Y119.573 E3.36031
G1 X92.952 Y119.129 E3.37372
G1 X92.774 Y118.714 E3.38701
G1 X92.528 Y118.331 E3.40039
G1 X92.222 Y117.995 E3.41373
G1 X91.829 Y117.684 E3.42848
G1 X93.207 Y117.661 E3.46900
G1 X97.090 Y117.818 E3.58320
G1 X101.488 Y118.190 E3.71292
G1 X107.096 Y118.851 E3.87886
G1 X114.403 Y119.904 E4.09580
G1 X114.402 Y120.086 E4.10114
G1 X111.065 Y120.598 E4.20038
G1 X107.004 Y121.162 E4.32085
G1 X103.427 Y121.602 E4.42676
G1 X100.353 Y121.922 E4.51758
G1 X97.670 Y122.144 E4.59670
G1 X95.325 Y122.279 E4.66574
G1 X93.252 Y122.339 E4.72667
G1 X92.081 Y122.334 E4.76111
G1 X90.522 Y122.600 F7800.000
G1 X90.512 Y122.435 E4.76464 F2700.000
G1 X90.946 Y122.363 E4.77403
G1 X91.329 Y122.232 E4.78269
G1 X91.683 Y122.041 E4.79128
G1 X92.001 Y121.793 E4.79991
G1 X92.271 Y121.500 E4.80842
G1 X92.491 Y121.165 E4.81700
G1 X92.655 Y120.794 E4.82567
G1 X92.754 Y120.405 E4.83423
G1 X92.788 Y120.001 E4.84291
G1 X92.758 Y119.621 E4.85106
G1 X92.662 Y119.227 E4.85973
G1 X92.503 Y118.858 E4.86832
G1 X92.285 Y118.517 E4.87696
G1 X92.013 Y118.219 E4.88558
G1 X91.698 Y117.970 E4.89417
G1 X91.343 Y117.775 E4.90283
G1 X90.964 Y117.642 E4.91141
G1 X90.521 Y117.566 E4.92102
G1 X90.534 Y117.400 E4.92459
G1 X93.211 Y117.356 E4.98182
G1 X97.109 Y117.513 E5.06521
G1 X101.519 Y117.886 E5.15982
G1 X107.136 Y118.549 E5.28072
G1 X114.034 Y119.537 E5.42967
G1 X116.471 Y119.920 E5.48242
G1 X116.471 Y120.077 E5.48577
G1 X111.109 Y120.900 E5.60174
G1 X107.044 Y121.464 E5.68947
G1 X103.462 Y121.905 E5.76661
G1 X100.382 Y122.226 E5.83281
G1 X97.692 Y122.448 E5.89051
G1 X95.338 Y122.584 E5.94090
G1 X93.256 Y122.645 E5.98542
G1 X91.400 Y122.636 E6.02511
G1 X90.567 Y122.602 E6.04292
G1 X90.601 Y122.454 F7800.000
G1 X87.769 Y121.691 F7800.000
G1 X87.382 Y121.639 E6.05440 F900.000
G1 X86.428 Y121.454 E6.08295
G1 X85.552 Y121.226 E6.10956
G1 X84.828 Y120.977 E6.13205
G1 X84.236 Y120.717 E6.15107
G1 X83.732 Y120.436 E6.16804
G1 X83.317 Y120.142 E6.18297
G1 X83.162 Y120.003 E6.18909
G1 X83.405 Y119.790 E6.19858
G1 X83.969 Y119.426 E6.21830
G1 X85.047 Y118.943 E6.25303
G1 X86.366 Y118.562 E6.29336
G1 X87.763 Y118.318 E6.33504
G1 X87.631 Y118.520 E6.34215
G1 X87.424 Y118.988 E6.35718
G1 X87.297 Y119.485 E6.37224
G1 X87.254 Y120.001 E6.38744
G1 X87.296 Y120.508 E6.40240
G1 X87.422 Y121.005 E6.41746
G1 X87.627 Y121.473 E6.43250
G1 X87.745 Y121.654 E6.43883
G1 X88.617 Y122.163 F7800.000
G1 X87.325 Y121.988 E6.47715 F900.000
G1 X86.350 Y121.799 E6.50632
G1 X85.450 Y121.564 E6.53366
G1 X84.700 Y121.307 E6.55697
G1 X84.078 Y121.034 E6.57692
G1 X83.543 Y120.735 E6.59493
G1 X83.096 Y120.419 E6.61104
G1 X82.655 Y120.001 E6.62887
G1 X82.739 Y119.903 E6.63266
G1 X83.192 Y119.507 E6.65034
G1 X83.800 Y119.114 E6.67162
G1 X84.926 Y118.610 E6.70787
G1 X86.286 Y118.217 E6.74949
G1 X88.103 Y117.900 E6.80369
G1 X88.612 Y117.857 E6.81869
G1 X88.193 Y118.308 E6.83679
G1 X87.942 Y118.690 E6.85020
G1 X87.759 Y119.104 E6.86351
G1 X87.647 Y119.544 E6.87685
G1 X87.609 Y120.001 E6.89031
G1 X87.646 Y120.450 E6.90356
G1 X87.757 Y120.890 E6.91689
G1 X87.939 Y121.305 E6.93021
G1 X88.132 Y121.601 E6.94059
G1 X88.587 Y122.129 E6.96109
G1 X90.004 Y122.578 F7800.000
G1 X88.492 Y122.454 E6.99352 F900.000
G1 X87.275 Y122.289 E7.01977
G1 X86.283 Y122.097 E7.04138
G1 X85.362 Y121.857 E7.06172
G1 X84.588 Y121.592 E7.07920
G1 X83.942 Y121.307 E7.09429
G1 X83.380 Y120.994 E7.10805
G1 X82.904 Y120.657 E7.12051
G1 X82.507 Y120.298 E7.13196
G1 X82.254 Y120.001 E7.14030
G1 X82.521 Y119.688 E7.14910
G1 X83.008 Y119.263 E7.16291
G1 X83.654 Y118.845 E7.17935
G1 X84.820 Y118.323 E7.20668
G1 X86.218 Y117.919 E7.23777
G1 X88.064 Y117.597 E7.27783
G1 X89.835 Y117.446 E7.31583
G1 X89.857 Y117.621 E7.31961
G1 X89.763 Y117.636 E7.32163
G1 X89.381 Y117.766 E7.33026
G1 X89.028 Y117.955 E7.33883
G1 X88.707 Y118.203 E7.34751
G1 X88.434 Y118.497 E7.35608
G1 X88.211 Y118.836 E7.36475
G1 X88.049 Y119.204 E7.37335
G1 X87.949 Y119.595 E7.38196
G1 X87.915 Y120.000 E7.39067
G1 X87.948 Y120.399 E7.39922
G1 X88.047 Y120.790 E7.40784
G1 X88.209 Y121.159 E7.41645
G1 X88.377 Y121.417 E7.42302
G1 X88.698 Y121.790 E7.43356
G1 X89.017 Y122.038 E7.44219
G1 X89.372 Y122.231 E7.45084
G1 X89.754 Y122.362 E7.45946
G1 X90.022 Y122.407 E7.46526
G1 X90.009 Y122.533 E7.46798
G1 X89.758 Y122.406 F7800.000
G1 X116.621 Y119.998 F7800.000
G1 X117.540 Y120.000 E7.49498 F2700.000
G1 X115.916 Y119.997 F7800.000
G1 X115.326 Y119.996 E7.51233 F1200.000
G1 X114.555 Y119.995 E7.56038 F1200.000
G1 X113.761 Y119.995 F7800.000
G1 X113.139 Y119.998 E7.57865 F1200.000
G1 X113.139 Y119.998 F7800.000
G1 X112.187 Y120.003 E7.63799 F1200.000
G1 X111.354 Y120.007 F7800.000
G1 X110.713 Y120.009 E7.65682 F1200.000
G1 X109.704 Y120.006 E7.71978 F1200.000
G1 X109.304 Y120.267 F7800.000
G1 X109.498 Y120.074 E7.72803 F1200.000
G1 X109.332 Y119.726 E7.73964
G1 X108.709 Y120.350 E7.76623
G1 X108.113 Y120.432 E7.78437
G1 X108.884 Y119.662 E7.81723
G1 X108.435 Y119.598 E7.83090
G1 X107.518 Y120.515 E7.87002
G1 X106.922 Y120.598 E7.88816
G1 X107.986 Y119.534 E7.93355
G1 X107.537 Y119.469 E7.94722
G1 X106.336 Y120.671 E7.99848
G1 X105.751 Y120.743 E8.01626
G1 X107.089 Y119.405 E8.07333
G1 X106.630 Y119.351 E8.08727
G1 X105.166 Y120.815 E8.14972
G1 X104.581 Y120.887 E8.16750
G1 X106.171 Y119.297 E8.23533
G1 X105.712 Y119.243 E8.24927
G1 X103.996 Y120.959 E8.32247
G1 X103.411 Y121.031 E8.34025
G1 X105.253 Y119.189 E8.41884
G1 X104.794 Y119.134 E8.43278
G1 X102.835 Y121.093 E8.51633
G1 X102.263 Y121.153 E8.53370
G1 X104.335 Y119.080 E8.62211
G1 X103.876 Y119.026 E8.63605
G1 X101.690 Y121.213 E8.72932
G1 X101.117 Y121.272 E8.74669
G1 X103.417 Y118.972 E8.84481
G1 X102.959 Y118.918 E8.85874
G1 X100.545 Y121.332 E8.96172
G1 X99.978 Y121.386 E8.97890
G1 X102.500 Y118.864 E9.08648
G1 X102.041 Y118.810 E9.10042
G1 X99.418 Y121.432 E9.21228
G1 X98.859 Y121.478 E9.22920
G1 X101.582 Y118.756 E9.34535
G1 X101.111 Y118.713 E9.35960
G1 X98.300 Y121.525 E9.47953
G1 X97.741 Y121.571 E9.49645
G1 X100.638 Y118.673 E9.62006
G1 X100.165 Y118.633 E9.63438
G1 X97.191 Y121.607 E9.76125
G1 X96.647 Y121.639 E9.77770
G1 X99.692 Y118.593 E9.90762
G1 X99.219 Y118.553 E9.92194
G1 X96.102 Y121.670 E10.05491
G1 X95.558 Y121.702 E10.07136
G1 X98.747 Y118.513 E10.20738
G1 X98.274 Y118.473 E10.22169
G1 X95.020 Y121.727 E10.36049
G1 X94.491 Y121.742 E10.37644
G1 X97.801 Y118.433 E10.51760
G1 X97.328 Y118.393 E10.53192
G1 X93.963 Y121.757 E10.67544
G1 X93.435 Y121.773 E10.69138
G1 X96.843 Y118.364 E10.83677
G1 X96.350 Y118.344 E10.85165
G1 X93.433 Y121.261 E10.97608
G1 X93.614 Y120.568 E10.99770
G1 X95.857 Y118.325 E11.09338
G1 X95.364 Y118.305 E11.10827
G1 X93.650 Y120.018 E11.18137
G1 X93.613 Y119.543 E11.19576
G1 X94.871 Y118.285 E11.24943
