; generated by Slic3r 1.2.9 on 2016-07-06 at 13:27:48

; external perimeters extrusion width = 0.30mm
; perimeters extrusion width = 0.40mm
; infill extrusion width = 0.40mm
; solid infill extrusion width = 0.40mm
; top infill extrusion width = 0.40mm
; support material extrusion width = 0.30mm

M107
M190 S75 ; set bed temperature
M104 S210 ; set temperature

M109 S210 ; wait for temperature to be reached
G21 ; set units to millimeters
G90 ; use absolute coordinates
M82 ; use absolute distances for extrusion
G92 E0
G1 Z0.300 F7800.000
G1 E-2.00000 F2400.00000
G92 E0
G1 X59.159 Y91.251 F7800.000
G1 E2.00000 F2400.00000
G1 X60.799 Y90.371 E2.12427 F1800.000
G1 X62.833 Y89.680 E2.26782
G1 X64.138 Y89.466 E2.35618
G1 X65.194 Y89.381 E2.42696
G1 X134.693 Y89.381 E7.06986
G1 X135.276 Y89.407 E7.10885
G1 X136.423 Y89.509 E7.18577 F1800.000
G1 X137.983 Y89.844 E7.29233
G1 X139.003 Y90.199 E7.36451
G1 X140.209 Y90.760 E7.45332
G1 X141.131 Y91.310 E7.52508
G1 X142.303 Y92.202 E7.62344
G1 X143.112 Y92.977 E7.69833
G1 X144.175 Y94.299 E7.81165
G1 X144.832 Y95.378 E7.89607
G1 X145.574 Y97.128 E8.02304
G1 X145.985 Y98.701 E8.13161
G1 X146.196 Y100.267 E8.23716
G1 X146.223 Y102.875 E8.41144
G1 X145.033 Y143.014 E11.09412
G1 X144.569 Y145.244 E11.24629
G1 X143.369 Y147.180 E11.39846
G1 X141.577 Y148.586 E11.55063
G1 X138.500 Y149.356 E11.76253
G1 X61.500 Y149.356 E16.90654
G1 X59.257 Y148.959 E17.05871
G1 X57.287 Y147.817 E17.21089
G1 X55.828 Y146.067 E17.36306
G1 X54.967 Y143.017 E17.57477
G1 X53.777 Y103.468 E20.21805
G1 X53.786 Y100.826 E20.39455
G1 X54.478 Y97.929 E20.59354
G1 X56.407 Y94.081 E20.88109
G1 X57.767 Y92.254 E21.03326
G1 X59.123 Y91.277 E21.14490
G1 E19.14490 F2400.00000
G92 E0
G1 X120.164 Y136.286 F7800.000
G1 E2.00000 F2400.00000
G1 X120.164 Y105.985 E4.02425 F1800.000
G1 X126.836 Y105.985 E4.46992
G1 X126.836 Y136.286 E6.49417
G1 X120.209 Y136.286 E6.93684
G1 X120.700 Y135.750 F7800.000
G1 X120.700 Y106.520 E8.88953 F1800.000
G1 X126.300 Y106.520 E9.26364
G1 X126.300 Y135.750 E11.21632
G1 X120.745 Y135.750 E11.58743
G1 X120.400 Y135.750 F7800.000
G1 X116.836 Y136.286 F7800.000
G1 X83.164 Y136.286 E13.83685 F1800.000
G1 X83.164 Y105.985 E15.86110
G1 X116.836 Y105.985 E18.11052
G1 X116.836 Y136.241 E20.13176
G1 X116.300 Y135.750 F7800.000
G1 X83.700 Y135.750 E22.30962 F1800.000
G1 X83.700 Y106.520 E24.26230
G1 X116.300 Y106.520 E26.44016
G1 X116.300 Y135.705 E28.38984
G1 X116.300 Y136.050 F7800.000
G1 X79.836 Y136.286 F7800.000
G1 X73.164 Y136.286 E28.83551 F1800.000
G1 X73.164 Y105.985 E30.85976
G1 X79.836 Y105.985 E31.30544
G1 X79.836 Y136.241 E33.32668
G1 X79.300 Y135.750 F7800.000
G1 X73.700 Y135.750 E33.70079 F1800.000
G1 X73.700 Y106.520 E35.65348
G1 X79.300 Y106.520 E36.02759
G1 X79.300 Y135.705 E37.97726
G1 X79.300 Y136.050 F7800.000
G1 X80.371 Y136.821 F7800.000
G1 X80.371 Y105.192 E40.09028 F1800.000
G1 X82.629 Y105.192 E40.24110
G1 X82.629 Y136.821 E42.35411
G1 X117.371 Y136.821 E44.67510
G1 X117.371 Y105.192 E46.78812
G1 X119.629 Y105.192 E46.93893
G1 X119.629 Y136.821 E49.05195
G1 X127.371 Y136.821 E49.56919
G1 X127.371 Y105.192 E51.68221
G1 X129.629 Y105.192 E51.83302
G1 X129.629 Y136.194 E53.90417
G1 X137.129 Y141.065 E54.50159
G1 X137.129 Y141.449 E54.52726
G1 X62.871 Y141.449 E59.48807
G1 X62.871 Y141.065 E59.51374
G1 X70.371 Y136.194 E60.11116
G1 X70.371 Y105.192 E62.18231
G1 X72.629 Y105.192 E62.33312
G1 X72.629 Y136.821 E64.44614
G1 X80.326 Y136.821 E64.96037
G1 X80.000 Y139.135 F7800.000
G1 X71.158 Y138.819 F7800.000
G1 X71.243 Y137.907 F7800.000
G1 X70.000 Y135.993 F7800.000
G1 X69.836 Y105.985 F7800.000
G1 X62.336 Y105.985 E65.46142 F1800.000
G1 X62.336 Y104.656 E65.55018
G1 X137.664 Y104.656 E70.58255
G1 X137.664 Y105.985 E70.67132
G1 X130.164 Y105.985 E71.17236
G1 X130.164 Y135.904 E73.17110
G1 X137.664 Y140.774 E73.76852
G1 X137.664 Y141.985 E73.84940
G1 X62.336 Y141.985 E78.88177
G1 X62.336 Y140.774 E78.96265
G1 X69.836 Y135.904 E79.56007
G1 X69.836 Y106.030 E81.55580
G1 X69.300 Y106.520 F7800.000
G1 X61.800 Y106.520 E82.05684 F1800.000
G1 X61.800 Y104.120 E82.21717
G1 X138.200 Y104.120 E87.32111
G1 X138.200 Y106.520 E87.48144
G1 X130.700 Y106.520 E87.98248
G1 X130.700 Y135.613 E89.92600
G1 X138.200 Y140.483 E90.52343
G1 X138.200 Y142.520 E90.65952
G1 X61.800 Y142.520 E95.76345
G1 X61.800 Y140.483 E95.89954
G1 X69.300 Y135.613 E96.49696
G1 X69.300 Y106.565 E98.43748
G1 X69.300 Y106.220 F7800.000
G1 X70.103 Y105.320 F7800.000
G1 X62.603 Y105.320 E99.49979 F1800.000
G1 X72.897 Y105.320 F7800.000
G1 X80.103 Y105.320 E100.52057 F1800.000
G1 X82.897 Y105.320 F7800.000
G1 X117.103 Y105.320 E105.36565 F1800.000
G1 X119.897 Y105.320 F7800.000
G1 X127.103 Y105.320 E106.38643 F1800.000
G1 X129.307 Y105.781 F7800.000
G1 X129.040 Y105.513 E106.41186 F1800.000
G1 X128.277 Y105.513 E106.46319
G1 X129.307 Y106.543 E106.56122
G1 X129.307 Y107.306 E106.61255
G1 X127.693 Y105.692 E106.76615
G1 X127.693 Y106.455 E106.81748
G1 X129.307 Y108.069 E106.97108
G1 X129.307 Y108.832 E107.02242
G1 X127.693 Y107.218 E107.17602
G1 X127.693 Y107.981 E107.22735
G1 X129.307 Y109.595 E107.38095
G1 X129.307 Y110.358 E107.43229
G1 X127.693 Y108.744 E107.58589
G1 X127.693 Y109.507 E107.63722
G1 X129.307 Y111.121 E107.79082
G1 X129.307 Y111.884 E107.84216
G1 X127.693 Y110.270 E107.99576
G1 X127.693 Y111.032 E108.04709
G1 X129.307 Y112.647 E108.20069
G1 X129.307 Y113.410 E108.25202
G1 X127.693 Y111.795 E108.40563
G1 X127.693 Y112.558 E108.45696
G1 X129.307 Y114.173 E108.61056
G1 X129.307 Y114.935 E108.66189
G1 X127.693 Y113.321 E108.81550
G1 X127.693 Y114.084 E108.86683
G1 X129.307 Y115.698 E109.02043
G1 X129.307 Y116.461 E109.07176
G1 X127.693 Y114.847 E109.22537
G1 X127.693 Y115.610 E109.27670
G1 X129.307 Y117.224 E109.43030
G1 X129.307 Y117.987 E109.48163
G1 X127.693 Y116.373 E109.63524
G1 X127.693 Y117.136 E109.68657
G1 X129.307 Y118.750 E109.84017
G1 X129.307 Y119.513 E109.89150
G1 X127.693 Y117.899 E110.04510
G1 X127.693 Y118.662 E110.09644
G1 X129.307 Y120.276 E110.25004
G1 X129.307 Y121.039 E110.30137
G1 X127.693 Y119.425 E110.45497
G1 X127.693 Y120.187 E110.50631
G1 X129.307 Y121.802 E110.65991
G1 X129.307 Y122.565 E110.71124
G1 X127.693 Y120.950 E110.86484
G1 X127.693 Y121.713 E110.91617
G1 X129.307 Y123.327 E111.06978
G1 X129.307 Y124.090 E111.12111
G1 X127.693 Y122.476 E111.27471
G1 X127.693 Y123.239 E111.32604
G1 X129.307 Y124.853 E111.47965
G1 X129.307 Y125.616 E111.53098
G1 X127.693 Y124.002 E111.68458
G1 X127.693 Y124.765 E111.73591
G1 X129.307 Y126.379 E111.88952
G1 X129.307 Y127.142 E111.94085
G1 X127.693 Y125.528 E112.09445
G1 X127.693 Y126.291 E112.14578
G1 X129.307 Y127.905 E112.29938
G1 X129.307 Y128.668 E112.35072
G1 X127.693 Y127.054 E112.50432
G1 X127.693 Y127.817 E112.55565
G1 X129.307 Y129.431 E112.70925
G1 X129.307 Y130.194 E112.76059
G1 X127.693 Y128.579 E112.91419
G1 X127.693 Y129.342 E112.96552
G1 X129.307 Y130.957 E113.11912
G1 X129.307 Y131.719 E113.17045
G1 X127.693 Y130.105 E113.32406
G1 X127.693 Y130.868 E113.37539
G1 X129.307 Y132.482 E113.52899
G1 X129.307 Y133.245 E113.58032
G1 X127.693 Y131.631 E113.73393
G1 X127.693 Y132.394 E113.78526
G1 X129.307 Y134.008 E113.93886
G1 X129.307 Y134.771 E113.99019
G1 X127.693 Y133.157 E114.14380
G1 X127.693 Y133.920 E114.19513
G1 X129.307 Y135.534 E114.34873
G1 X129.307 Y136.297 E114.40006
G1 X127.693 Y134.683 E114.55366
G1 X127.693 Y135.446 E114.60500
G1 X133.375 Y141.128 E115.14566
G1 X134.138 Y141.128 E115.19699
G1 X129.786 Y136.775 E115.61112
G1 X127.693 Y136.971 F7800.000
G1 X131.849 Y141.128 E116.00660 F1800.000
G1 X131.086 Y141.128 E116.05793
G1 X127.101 Y137.143 E116.43710
G1 X126.338 Y137.143 E116.48843
G1 X130.323 Y141.128 E116.86761
G1 X129.560 Y141.128 E116.91894
G1 X125.575 Y137.143 E117.29811
G1 X124.813 Y137.143 E117.34944
G1 X128.797 Y141.128 E117.72861
G1 X128.034 Y141.128 E117.77995
G1 X124.050 Y137.143 E118.15912
G1 X123.287 Y137.143 E118.21045
G1 X127.272 Y141.128 E118.58962
G1 X126.509 Y141.128 E118.64095
G1 X122.524 Y137.143 E119.02013
G1 X121.761 Y137.143 E119.07146
G1 X125.746 Y141.128 E119.45063
G1 X124.983 Y141.128 E119.50196
G1 X120.998 Y137.143 E119.88114
G1 X120.235 Y137.143 E119.93247
G1 X124.220 Y141.128 E120.31164
G1 X123.457 Y141.128 E120.36297
G1 X117.693 Y135.363 E120.91145
G1 X117.693 Y136.126 E120.96278
G1 X122.694 Y141.128 E121.43867
G1 X121.931 Y141.128 E121.49000
G1 X117.693 Y136.889 E121.89330
G1 X117.183 Y137.143 F7800.000
G1 X121.168 Y141.128 E122.27247 F1800.000
G1 X120.405 Y141.128 E122.32380
G1 X116.421 Y137.143 E122.70297
G1 X115.658 Y137.143 E122.75430
G1 X119.642 Y141.128 E123.13348
G1 X118.880 Y141.128 E123.18481
G1 X114.895 Y137.143 E123.56398
G1 X114.132 Y137.143 E123.61531
G1 X118.117 Y141.128 E123.99449
G1 X117.354 Y141.128 E124.04582
G1 X113.369 Y137.143 E124.42499
G1 X112.606 Y137.143 E124.47632
G1 X116.591 Y141.128 E124.85549
G1 X115.828 Y141.128 E124.90683
G1 X111.843 Y137.143 E125.28600
G1 X111.080 Y137.143 E125.33733
G1 X115.065 Y141.128 E125.71650
G1 X114.302 Y141.128 E125.76784
G1 X110.317 Y137.143 E126.14701
G1 X109.554 Y137.143 E126.19834
G1 X113.539 Y141.128 E126.57751
G1 X112.776 Y141.128 E126.62884
G1 X108.791 Y137.143 E127.00802
G1 X108.029 Y137.143 E127.05935
G1 X112.013 Y141.128 E127.43852
G1 X111.250 Y141.128 E127.48985
G1 X107.266 Y137.143 E127.86903
G1 X106.503 Y137.143 E127.92036
G1 X110.488 Y141.128 E128.29953
G1 X109.725 Y141.128 E128.35086
G1 X105.740 Y137.143 E128.73003
G1 X104.977 Y137.143 E128.78137
G1 X108.962 Y141.128 E129.16054
G1 X108.199 Y141.128 E129.21187
G1 X104.214 Y137.143 E129.59104
G1 X103.451 Y137.143 E129.64237
G1 X107.436 Y141.128 E130.02155
G1 X106.673 Y141.128 E130.07288
G1 X102.688 Y137.143 E130.45205
G1 X101.925 Y137.143 E130.50338
G1 X105.910 Y141.128 E130.88256
G1 X105.147 Y141.128 E130.93389
G1 X101.162 Y137.143 E131.31306
G1 X100.399 Y137.143 E131.36439
G1 X104.384 Y141.128 E131.74356
G1 X103.621 Y141.128 E131.79490
G1 X99.637 Y137.143 E132.17407
G1 X98.874 Y137.143 E132.22540
G1 X102.858 Y141.128 E132.60457
G1 X102.096 Y141.128 E132.65590
G1 X98.111 Y137.143 E133.03508
G1 X97.348 Y137.143 E133.08641
G1 X101.333 Y141.128 E133.46558
G1 X100.570 Y141.128 E133.51691
G1 X96.585 Y137.143 E133.89609
G1 X95.822 Y137.143 E133.94742
G1 X99.807 Y141.128 E134.32659
G1 X99.044 Y141.128 E134.37792
G1 X95.059 Y137.143 E134.75709
G1 X94.296 Y137.143 E134.80843
G1 X98.281 Y141.128 E135.18760
G1 X97.518 Y141.128 E135.23893
G1 X93.533 Y137.143 E135.61810
G1 X92.770 Y137.143 E135.66943
G1 X96.755 Y141.128 E136.04861
G1 X95.992 Y141.128 E136.09994
G1 X92.007 Y137.143 E136.47911
G1 X91.245 Y137.143 E136.53044
G1 X95.229 Y141.128 E136.90962
G1 X94.466 Y141.128 E136.96095
G1 X90.482 Y137.143 E137.34012
G1 X89.719 Y137.143 E137.39145
G1 X93.703 Y141.128 E137.77062
G1 X92.941 Y141.128 E137.82196
G1 X88.956 Y137.143 E138.20113
G1 X88.193 Y137.143 E138.25246
G1 X92.178 Y141.128 E138.63163
G1 X91.415 Y141.128 E138.68297
G1 X87.430 Y137.143 E139.06214
G1 X86.667 Y137.143 E139.11347
G1 X90.652 Y141.128 E139.49264
G1 X89.889 Y141.128 E139.54397
G1 X85.904 Y137.143 E139.92315
G1 X85.141 Y137.143 E139.97448
G1 X89.126 Y141.128 E140.35365
G1 X88.363 Y141.128 E140.40498
G1 X84.378 Y137.143 E140.78416
G1 X83.615 Y137.143 E140.83549
G1 X87.600 Y141.128 E141.21466
G1 X86.837 Y141.128 E141.26599
G1 X82.852 Y137.143 E141.64516
G1 X82.307 Y137.360 E141.68467
G1 X80.693 Y135.746 E141.83827
G1 X80.693 Y136.509 E141.88961
G1 X85.311 Y141.128 E142.32909
G1 X86.074 Y141.128 E142.38042
G1 X82.090 Y137.143 E142.75959
G1 X82.307 Y136.597 E142.79910
G1 X80.693 Y134.983 E142.95270
G1 X80.693 Y134.220 E143.00403
G1 X82.307 Y135.834 E143.15764
G1 X82.307 Y135.072 E143.20897
G1 X80.693 Y133.457 E143.36257
G1 X80.693 Y132.694 E143.41390
G1 X82.307 Y134.309 E143.56751
G1 X82.307 Y133.546 E143.61884
G1 X80.693 Y131.931 E143.77244
G1 X80.693 Y131.169 E143.82377
G1 X82.307 Y132.783 E143.97738
G1 X82.307 Y132.020 E144.02871
G1 X80.693 Y130.406 E144.18231
G1 X80.693 Y129.643 E144.23364
G1 X82.307 Y131.257 E144.38725
G1 X82.307 Y130.494 E144.43858
G1 X80.693 Y128.880 E144.59218
G1 X80.693 Y128.117 E144.64351
G1 X82.307 Y129.731 E144.79712
G1 X82.307 Y128.968 E144.84845
G1 X80.693 Y127.354 E145.00205
G1 X80.693 Y126.591 E145.05338
G1 X82.307 Y128.205 E145.20699
G1 X82.307 Y127.442 E145.25832
G1 X80.693 Y125.828 E145.41192
G1 X80.693 Y125.065 E145.46325
G1 X82.307 Y126.680 E145.61686
G1 X82.307 Y125.917 E145.66819
G1 X80.693 Y124.302 E145.82179
G1 X80.693 Y123.539 E145.87312
G1 X82.307 Y125.154 E146.02673
G1 X82.307 Y124.391 E146.07806
G1 X80.693 Y122.777 E146.23166
G1 X80.693 Y122.014 E146.28299
G1 X82.307 Y123.628 E146.43660
G1 X82.307 Y122.865 E146.48793
G1 X80.693 Y121.251 E146.64153
G1 X80.693 Y120.488 E146.69286
G1 X82.307 Y122.102 E146.84647
G1 X82.307 Y121.339 E146.89780
G1 X80.693 Y119.725 E147.05140
G1 X80.693 Y118.962 E147.10274
G1 X82.307 Y120.576 E147.25634
G1 X82.307 Y119.813 E147.30767
G1 X80.693 Y118.199 E147.46127
G1 X80.693 Y117.436 E147.51261
G1 X82.307 Y119.050 E147.66621
G1 X82.307 Y118.288 E147.71754
G1 X80.693 Y116.673 E147.87114
G1 X80.693 Y115.910 E147.92248
G1 X82.307 Y117.525 E148.07608
G1 X82.307 Y116.762 E148.12741
G1 X80.693 Y115.147 E148.28101
G1 X80.693 Y114.385 E148.33235
G1 X82.307 Y115.999 E148.48595
G1 X82.307 Y115.236 E148.53728
G1 X80.693 Y113.622 E148.69089
G1 X80.693 Y112.859 E148.74222
G1 X82.307 Y114.473 E148.89582
G1 X82.307 Y113.710 E148.94715
G1 X80.693 Y112.096 E149.10076
G1 X80.693 Y111.333 E149.15209
G1 X82.307 Y112.947 E149.30569
G1 X82.307 Y112.184 E149.35702
G1 X80.693 Y110.570 E149.51063
G1 X80.693 Y109.807 E149.56196
G1 X82.307 Y111.421 E149.71556
G1 X82.307 Y110.658 E149.76689
G1 X80.693 Y109.044 E149.92050
G1 X80.693 Y108.281 E149.97183
G1 X82.307 Y109.896 E150.12543
G1 X82.307 Y109.133 E150.17676
G1 X80.693 Y107.518 E150.33037
G1 X80.693 Y106.755 E150.38170
G1 X82.307 Y108.370 E150.53530
G1 X82.307 Y107.607 E150.58663
G1 X80.693 Y105.993 E150.74024
G1 X80.977 Y105.513 E150.77771
G1 X82.307 Y106.844 E150.90432
G1 X82.307 Y106.081 E150.95565
G1 X81.739 Y105.513 E151.00967
G1 X72.307 Y105.999 F7800.000
G1 X71.822 Y105.513 E151.05586 F1800.000
G1 X71.059 Y105.513 E151.10720
G1 X72.307 Y106.762 E151.22599
G1 X72.307 Y107.525 E151.27732
G1 X70.693 Y105.910 E151.43092
G1 X70.693 Y106.673 E151.48226
G1 X72.307 Y108.288 E151.63586
G1 X72.307 Y109.050 E151.68719
G1 X70.693 Y107.436 E151.84079
G1 X70.693 Y108.199 E151.89213
G1 X72.307 Y109.813 E152.04573
G1 X72.307 Y110.576 E152.09706
G1 X70.693 Y108.962 E152.25067
G1 X70.693 Y109.725 E152.30200
G1 X72.307 Y111.339 E152.45560
G1 X72.307 Y112.102 E152.50693
G1 X70.693 Y110.488 E152.66054
G1 X70.693 Y111.251 E152.71187
G1 X72.307 Y112.865 E152.86547
G1 X72.307 Y113.628 E152.91680
G1 X70.693 Y112.014 E153.07041
G1 X70.693 Y112.777 E153.12174
G1 X72.307 Y114.391 E153.27534
G1 X72.307 Y115.154 E153.32667
G1 X70.693 Y113.539 E153.48028
G1 X70.693 Y114.302 E153.53161
G1 X72.307 Y115.917 E153.68521
G1 X72.307 Y116.680 E153.73654
G1 X70.693 Y115.065 E153.89015
G1 X70.693 Y115.828 E153.94148
G1 X72.307 Y117.442 E154.09508
G1 X72.307 Y118.205 E154.14642
G1 X70.693 Y116.591 E154.30002
G1 X70.693 Y117.354 E154.35135
G1 X72.307 Y118.968 E154.50495
G1 X72.307 Y119.731 E154.55629
G1 X70.693 Y118.117 E154.70989
G1 X70.693 Y118.880 E154.76122
G1 X72.307 Y120.494 E154.91482
G1 X72.307 Y121.257 E154.96616
G1 X70.693 Y119.643 E155.11976
G1 X70.693 Y120.406 E155.17109
G1 X72.307 Y122.020 E155.32470
G1 X72.307 Y122.783 E155.37603
G1 X70.693 Y121.169 E155.52963
G1 X70.693 Y121.931 E155.58096
G1 X72.307 Y123.546 E155.73457
G1 X72.307 Y124.309 E155.78590
G1 X70.693 Y122.694 E155.93950
G1 X70.693 Y123.457 E155.99083
G1 X72.307 Y125.072 E156.14444
G1 X72.307 Y125.834 E156.19577
G1 X70.693 Y124.220 E156.34937
G1 X70.693 Y124.983 E156.40070
G1 X72.307 Y126.597 E156.55431
G1 X72.307 Y127.360 E156.60564
G1 X70.693 Y125.746 E156.75924
G1 X70.693 Y126.509 E156.81057
G1 X72.307 Y128.123 E156.96418
G1 X72.307 Y128.886 E157.01551
G1 X70.693 Y127.272 E157.16911
G1 X70.693 Y128.035 E157.22045
G1 X72.307 Y129.649 E157.37405
